X:1
T:Agnus Dei
T:Josef Gruber, op.79
T:Agnus Dei
T:Gloria
C:Josef Gruber, op.79
%%score { ( 1 3 6 ) | ( 2 4 5 ) } { ( 7 8 11 12 ) | ( 9 10 13 ) }
L:1/8
Q:1/4=80
M:4/4
K:C
V:1 treble nm="P1"
V:3 treble 
V:6 treble 
V:2 bass 
V:4 bass 
V:5 bass 
V:7 treble nm="P3"
V:8 treble 
V:11 treble 
V:12 treble 
V:9 bass 
V:10 bass 
V:13 bass 
V:1
"^SOPRANO    ALTO""^Andante" z8 | z8 |!p! z8 |"^-"!<(! (A4!<)! B3)!>(! A | %4
w: |||Ky- * ri-|
w: ||||
 A2!>)! E2!<)!!<(! (A^GAB) | c2 c2!<(! c4!<)! | c2!mf! e2 (dcBA) | ^G2 z2 z4 | %8
w: e e- lei- * * *|son, e- lei-|son, e- lei- * * *|son,|
w: ||||
!p!"^-"!<(! (A4!<)! B3)!>(! A | A2!>)! A2!<)!!<(! (cBcd) | e2!f! e2 e4 | d2 d2 f4 | e2 z2 z4 | %13
w: Ky- * ri-|e e- lei- * * *|son, e- lei-|son, e- lei-|son,|
w: |||||
"^-""^-" f8- |"^-" f3 f e2 e2 |!>(! d4!>)! c2!p! c2 | (c2"^-" BA"^-" B4) | c2 z2 z4 |!mf! z8 | %19
w: Ky-|* ri- e e-|lei- son, e-|lei- * * *|son.||
w: ||||||
"^Solo" z8 | z2!mf!!<(! ^c4 c!<)!c | e4 ^c2 z2 |!f! z2 (^f3 e)^d^c | ^B4 ^c2 A2 | %24
w: |Chri- ste e-|lei- son,|Chri- * ste e-|lei- son, e-|
w: |||||
"^-" (^G4"^-" ^F4) | E2 z2 z4 | z8 |"^Tutti"!p!"^-"!<(! (A4!<)! B3)!>(! A | %28
w: lei- *|son.||Ky- * ri-|
w: ||||
 A2!>)! E2!<)!!<(! (A^GAB) | c2 c2!<(! c4!<)! | c2!mf! e2 (dcBA) | ^G2 z2 z4 | %32
w: e e- lei- * * *|son, e- lei-|son, e- lei- * * *|son,|
w: ||||
"^-"!<(! (A4!<)! B3)!>)!!>(! A | A2 z2 z4 | z2 =G2!<(! (G^FG!<)!A) | B2 B2 (Bcde) | d2 z2 z4 | %37
w: Ky- * ri-|e|e- lei- * * *|son, e- lei- * * *|son,|
w: |||||
!f! (e4 d3) c | c2 A2!>)!!>(! (A^GAB) | c4!p! B4 | (^G6 A2) | A4 z4 | z4 z2 A2 | %43
w: Ky- * ri-|e e- lei- * * *|son, e-|lei- *|son,|e-|
w: ||||||
 (AG"^-"FE"^-"!>)!!>(! F4) | !fermata!E8 |][M:4/4]!f!"^Allegro"[Q:1/4=120][Q:1/4=120] c3 c c2 A2 | %46
w: lei- * * * *|son.|Et in ter- ra|
w: |||
 c4 c4 | c4 A4 | G4 G2 G2 | (G2 d2) (c2 B2) | (A6"^-" B2) | B4 z4 | z8 | z4 e2 e2 | (f2 e2) d2 c2 | %55
w: pax ho-|mi- ni-|bus bo- nae|vo- * lun- *|ta- *|tis.||be- ne-|di- * ci- mus|
w: |||||||||
 B4 z4 | z8 | z2!f! d2 d2 d2 | g4 e4 | c2 c2 c2 d2 | (e4"^-" d2) d2 | c4"^Solo"!mf! z4 | c3 c c4 | %63
w: te,||glo- ri- fi-|ca- mus|te, glo- ri- fi-|ca- * mus|te.|Gra- ti- as|
w: ||||||||
 e4 B2 B2 | B8 | B4 z4 | z4"^Tutti"!f! e2 e2 | c4 A4 | z4 g2 g2 | f4 d4 | f4 f4 | f4 e4 | %72
w: a- gi- mus|ti-|bi|pro- pter|ma- gnam,|pro- pter|ma- gnam,|pro- pter|ma- gnam|
w: |||||||||
 (c2"^-" Bc dc)BA | (e6"^-" c2) | B4 z4 |!mf! A4 A2 A2 | e4 e4 | d4 (A2 B2) | c4 G4 | z2 G4 G2 | %80
w: glo- * * * * ri- am|tu- *|am.|Do- mi- ne|De- us,|Rex coe- *|le- stis,|De- us|
w: ||||||||
 G4 E2 F2 | G3 G G4 | z8 | z8 | z8 | z8 | z2!p! A4 A2 |!>(!!<(! A8!>)!!<)! | A2 z2 z4 | %89
w: Pa- ter o-|mni- po- tens.|||||Je- su|Chri-|ste.|
w: |||||||||
!f! G4 G2 G2 | d4 A4 | B6"^-" ^F2 | G4 G4 | G4 G2 G2 |!>(! A8!>)! | G8 || %96
w: Do- mi- ne|De- us,|A- gnus|De- i,|Fi- li- us|Pa-|tris.|
w: |||||||
"^Andante sostenuto"[Q:1/4=80][Q:1/4=80] z4!mf! z2"^CHORAL" G2 | (G2 A2) A2 A2 |!<(! G4!<)! A4 | %99
w: Qui|tol- * lis pec-|ca- ta|
w: |||
 (c4!>(! B4)!>)! | A4!p! A2 A2 | G4 A4 | (G4"^-"!>(! E4)!>)! | E4 z4 | z4 E4 | (G2 A2) A2 A2 | %106
w: mun- *|di, mi- se-|re- re|no- *|bis,|qui|tol- * lis pec-|
w: |||||||
!<(! G4!<)! A4 |!>(! (c6!>)!"^-" B2) | A4 z4 |!mf! A3 A A4 | c2!<(! c2 c2 c2!<)! | d4 e4 | %112
w: ca- ta|mun- *|di,|sus- ci- pe|de- pre- ca- ti-|o- nem|
w: ||||||
!f! [Af]8 | d4 z4 | z4!f! E4 | G4 A2 A2 | A4 G2 A2 | (c6"^-""^-" B2) | A4!p! A2 A2 | G4 A4 | %120
w: no-|stram.|Qui|se- des ad|dex- te- ram|Pa- *|tris, mi- se-|re- re|
w: ||||||||
!>(! [EG]8!>)! | !fermata!G8 ||!f!"^Tempo I" G3 G G2 G2 | c4 B4 | (c4 d4) | c2 e2 e2 e2 | %126
w: no-|bis.|Quo- ni- am tu|so- lus|san- *|ctus. Tu so- lus|
w: ||||||
 c3 c c2 c2 | f4 f2 f2 | d3 d d4 | e4 d4 | c8 | B2 G2 G2 G2 | c3 c c4 | z2 c2 c2 cc | B4 c4 | d8 | %136
w: Do- mi- nus, tu|so- lus Al-|tis- si- mus,|Je- su|Chri-|ste. Cum San- cto|Spi- ri- tu|in glo- ri- a|De- i|Pa-|
w: ||||||||||
 ^c4 z2 (e2 |"^-" f2"^-" e2 d2"^-" ef |"^-" g2"^-" f2"^-" e2) (fd) | (c4"^-" B4) | c4 z4 | %141
w: tris. A-||* * * men, *|a- *|men,|
w: |||||
 z4"^-" c2 c2 |!<(! (c8-!<)! |!ff! [cf]8) | [ce]8- | [ce]2 z2 z4 |] %146
w: * men,|a-||men.|_|
w: a- men,|||||
[K:F][M:3/4]!f!"^v·""^Allegro moderato"[Q:1/4=120][Q:1/4=120] A4 A2 | A2 G2 F2 |"^-" c6 | A4 A2 | %150
w: Pa- trem|o- mni- po-|ten-|tem, fa-|
w: ||||
 d4 c2 | A2 G2 F2 | c6 | G2 G2 G2 | A4 A2 | F2 B2 B2 | G2 G2 G2 | (c2 f2) e2 | (d2 c2) =B2 | %159
w: cto- rem|coe- li et|ter-|rae, vi- si-|bi- li-|um o- mni-|um et in-|vi- * si-|bi- * li-|
w: |||||||||
 c2 z2 z2 | z6 | z6 | z2!f! =B2 B2 | d6 | =B2 B2 BB | c4 c2 | z2 d2 dd | e4 e2 | d4 c2 | =B4 B2 | %170
w: um.|||Je- sum|Chri-|stum, Fi- li- um|De- i,|Fi- li- um|De- i|u- ni-|ge- ni-|
w: |||||||||||
 A2 z2 z2 | z6 | z6 | z6 | z2!f! e2 e2 | f2 d2 e2 | d>^c c2 z2 | d2 d2 =c2 | A2 F2 z2 | f2 f2 e2 | %180
w: tum.||||an- te|o- mni- a|sae- cu- la.|De- um de|De- o,|lu- men de|
w: ||||||||||
 d>d c2 z2 | c4 d2 | _e2 d2 B2 | (f2 d2) B2 | (B4 c2) | c4!mp! z2 | BB B2 B2 | (GA) B2 z2 | z6 | %189
w: lu- mi- ne,|De- um|ve- rum de|De- * o|ve- *|ro.|Ge- ni- tum, non|fa- * ctum,||
w: |||||||||
 z6 | z6 | _e4 c2 | d2 d2 d2 | (d2 c2) B2 | A4!f! D2 | G2 G2 G2 | d>B G2 G2 | GG G2 GG | %198
w: ||per quem|o- mni- a|fa- * cta|sunt. Qui|pro- pter nos|ho- mi- nes et|pro- pter no- * stram|
w: |||||||||
 B2 G2!mf! G2 | (_e3 d) cB | A2 A2!p! D2 | (B3 A) G^F |"^rit.""^rit."!>(! G6!>)! | !fermata!^F6 || %204
w: lu- tem de-|scen- * dit de|coe- lis, de-|scen- * dit de|coe-|lis.|
w: ||||||
[K:G][M:4/4]!p!"^Andante sostenuto"[Q:1/4=80][Q:1/4=80]!<(! G4 G2!<)! B2 | d6 c2 | %206
w: Et in- car-|na- tus|
w: ||
 B2 B2!<(! B2 BB!<)! | d4!>(! A4!>)! |!p!!<(! A2 A2 A2!<)! B2 | !^!c3 c B2!p! B2 | A4 G4 | %211
w: est de Spi- ri- tu|San- cto|ex Ma- ri- a|Vir- gi- ne, et|ho- mo|
w: |||||
!>(! G4 F4!>)! |!pp! !fermata![DG]8 ||[K:F] z8 | z8 | z8 | z8 | z8 | z8 | z2 !^!B4 A2 | %220
w: fa- ctus|est.|||||||pas- sus|
w: |||||||||
 G2 G2!>(! G2 ^F2!>)! | G8 ||!f!"^Allegro"[Q:1/4=120][Q:1/4=120] c4 =B2 c2 | (d3"^-" c"^-" =B2 A2 | %224
w: et se- pul- tus|est.|Et re- sur-|re- * * *|
w: ||||
"^-" c4) c4 | =e4 e2 e2 | f4 e2 e2 | e4 =B2 B2 | [Ad]8 | ^c4 A2 A2 | d4 ^c2 d2 | %231
w: * xit|ter- ti- a|di- e, se-|cun- dum Scri-|ptu-|ras. Et a-|scen- dit in|
w: |||||||
 (e3"^-" d"^-" ^c2 =B2 |"^-" d4) d4 | ^f2 ff f2 ff | [Bg]8 | ^f4 z2 d2 | d3 d d2 c2 | B3 B B2 B2 | %238
w: coe- * * *|* lum,|se- det ad dex- te- ram|Pa-|tris. Et|i- te- rum ven-|tu- rus est cum|
w: |||||||
 B3 B B2 cc | d4 A4 |!>(! G4 G2!>)!!p! G2 | _E6 E2 |!f! D2 (G2 A2) =B2 |"^-"!f!"^-" c8- | %244
w: glo- ri- a, ju- di-|ca- re|vi- vos et|mor- tu-|os, * * *||
w: ||||* cu- * jus|re-|
"^-" c4 c2 c2 | (c2 d2"^-" e2) e2 |"^-" d8 | !fermata!c8 ||[M:3/4]!mf!"^Tempo I" cc c2 cc | d4 c2 | %250
w: re- gni non|e- * * rit|fi-|nis.|Et in Spi- ri- tum|San- ctum,|
w: * gni *||||||
 (AB c2) G2 | A2!<(! AA B!<)!c |"^-" d6 | c2!f! c2 d2 | c4 G2 | (A2 G2) F2 | c2 A2 A2 | A6 | %258
w: Do- * * mi-|num et vi- vi- fi-|can-|tem: qui ex|Pa- tre|Fi- * li-|o- que pro-|ce-|
w: ||||||||
 G2 z2 z2 | z6 | z6 | z2!p! E2 E2 |!<(! E4!<)! E2 |!<(! G6!<)! | G2!f! c2 c2 | c2 c2 d2 | e6 | %267
w: dit.|||si- mul|a- do-|ra-|tur et con-|glo- ri- fi-|ca-|
w: |||||||||
 c2 c2 c2 | g3 e c2 | c4 e2 |"^-" d6 |"^-" c4 G2 | A4 A2 | A2 G2 F2 | c4 c2 | A2 A2 AA | d4 c2 | %277
w: tur: qui lo-|cu- tus est|per Pro-|phe-|tas. Et|u- nam,|san- ctam, ca-|tho- li-|cam et a- po-|sto- li-|
w: ||||||||||
 (A2 G2) F2 | c4 c2 | G4 G2 | A3 A A2 | A2 A2 A2 | B6 | A2 DD DD | B4 G2 | F4 _E2 | %286
w: cam * Ec-|cle- si-|am. Con-|fi- te- or|u- num ba-|pti-|sma in re- mis- si-|o- nem|pec- ca-|
w: |||||||||
 (D4!>(! _E2)!>)! | D2!mf! A2 A2 | B4 B2 | d3 c BA | G2 G2 GG |!<(!!>(! _A6!<)!!>)! | G4!f! c2 | %293
w: to- *|rum. Et ex-|spe- cto|re- sur- re- cti-|o- nem mor- tu-|o-|rum. Et|
w: |||||||
 f2 f2 f2 | e4 e2 | d4 d2 | c4 (c2- |"^-" c3"^-" B AG |"^-" A2) F2 FF |"^-" G6 | A2 c2 c2 | %301
w: vi- tam ven-|tu- ri|sae- cu-|li. A-||* men, a- men,|a-|men, a- men,|
w: ||||||||
!ff! !fermata!d6 | !fermata!c6 |][K:C][M:4/4]!mf!"^Andante"[Q:1/4=80]"^-"[Q:1/4=80] z8 | %304
w: a-|men.||
w: |||
!mf! (c2 AB)!>)!!>(! c4 | (e2 cd"^-" ed) (cB) | A4 G4 |!f! c6"^-" c2 | c3 c B2 BB | %309
w: San- * * ctus,|San- * * * * ctus, _|San- ctus,|San- ctus|Do- mi- nus De- us|
w: |||||
 (d3 c"^-" A2)!>(! A2!>)! | !fermata!G8 ||[M:3/4]!f! z6 | z6 | z6 | z6 |!f! c2 c2 c2 | _e2 e2 e2 | %317
w: Sa- * * ba-|oth.|||||Ple- ni sunt|coe- li et|
w: ||||||||
"^-" d6 | c4 z2 | d3 d d2 | f3 _e d2 | (d2 c"^-"_B c2) | d4 z2 |!f! _B3 B B2 | d3 c _B2 | %325
w: ter-|ra,|glo- ri- a,|glo- ri- a|tu- * * *|a,|glo- ri- a,|glo- ri- a|
w: ||||||||
 (_B2 AG"^-" A2) | !fermata!=B4!f! B2 ||[M:4/4] c4 =B4 | z2 B4 c2 | d4 ^c2 e2 | f4 d4 | e6 (ed) | %332
w: tu- * * *|a. Ho-|san- na|in ex-|cel- sis, ho-|san- na|in ex- *|
w: |||||||
 (c4"^-" B4) | c4 z4 | z8 | z8 | z8 | z8 | z8 |][K:F][M:4/4]"^Andante"[Q:1/4=80][Q:1/4=80] z8 | %340
w: cel- *|sis.|||||||
w: ||||||||
 z8 | z8 | z8 |"^Solo"!mf! (F3 E"^-" F2)"^Solo" G2 |!mf!"^-" (A6"^-""^-" B2 | %345
w: ||||Be- ne-|
w: |||Be- * * ne-|di- *|
"^-"!<(! c4"^-" d4)!<)! |!>(! G4!>)! (G2 A2) |!<(! (B3 c"^-" d2!<)!"^-" e2 |"^-" f4) e2 e2 | %349
w: di- *|ctus qui _|ve- * * *|* nit in|
w: |ctus * *|||
 (d4-"^-" dc)BA | B6"^-"!>(! B2!>)! | A4 z4 |"^-" z8 | (d3"^-" c"^-""^-" d2) =e2 |"^-" f4 c2 c2 | %355
w: no- * * mi- ne|Do- mi-|ni.||Be- * * ne-|di- ctus qui|
w: ||||||
 (_e6"^-""^-" dc) | =B4 B4 | c3 _B A2 A2 | (B2 A2) G2 F2 |"^-" (F4!>(! E2) E2!>)! | %360
w: ve- * *|nit in|no- mi- ne, in|no- * mi- ne|Do- * mi-|
w: |||||
 F4"^Tutti"!f! z4 || z8 | z4"^Tutti" z2!f! f2 | f3 =e d2 (de) | f4 c2!p! AA | G8 | A4 F2 F2 | %367
w: ni.||ho-|san- na in ex- *|cel- sis, in ex-|cel-|sis, in ex-|
w: |||||||
!<(! F8!<)! |!>(! !fermata!F8!>)! |][K:C][M:4/4]"^Larghetto"[Q:1/4=70][Q:1/4=70] z8 | z8 | z8 | %372
w: cel-|sis.||||
w: |||||
!mf! z8 |"^Solo" (e4 dc) (BA) | ^G4 A2 A2 | d4 B2 B2 | c4 G4 |"^-""^-"!>(! A8!>)! | G4"^Tutti" z4 | %379
w: |A- * * gnus _|De- i, qui|tol- lis pec-|ca- ta|mun-|di:|
w: |||||||
 z2!<(! (G2 A2)!<)! B2 | c4 B4 |"^-""^-" A8 | G4 z4 | z8 | z8 | z8 | z8 | z8 | %388
w: mi- * se-|re- re|no-|bis.||||||
w: |||||||||
 z2!<(! (^G2 A2)!<)! B2 |"^-""^-""^-" (c8 |"^-" B6)"^-" B2 |"^-" B8 |"^-" B4 z4 | z8 | %394
w: ||||||
w: ||||||
!f! (e4 dc) (BA) | ^G4 A2 A2 | d4 B2 B2 | c4 G4 |"^-" A8 | G2 z2 z4 ||!mf! G2 A2 A2 B2 | %401
w: A- * * gnus _|De- i, qui|tol- lis pec-|ca- ta|mun-|di:|do- na no- bis|
w: |||||||
 (B2 c2) c4 |!f! e2 e2 e2 (ed) | c4 B4 | z8 | z8 |!f! d2 d2 d2 e2 | (e2 f2) f4 | f4 e4 | %409
w: pa- * cem,|do- na no- bis _|pa- cem,|||do- na no- bis|pa- * cem,|do- na|
w: ||||||||
"^-" (d4 c2) (ed) | (c4 B4) | c4 z4 |!mf!!mf! d4 e4 | B2 B2 (B3 c) |"^-" c4!<(! z4!<)! | %415
w: no- * bis _|pa- *|cem,|do- na|no- bis pa- *|cem,|
w: ||||||
 z4!<)!!<(! c2 c2 | (c8- |"^rit.""^-" f8) | e8- | e2 z2 z4 | z8 |] %421
w: bis _|pa-||cem.|_||
w: no- bis||||||
V:2
"^TENORE  BASSO" z8 | z8 |!p! z8 |!<(! C4!<)! D3!>(! C!>)! | C2 z2 z4 | z2 C2!<(! CB,C!<)!D | %6
w: ||||||
w: ||||||
w: ||||||
w: ||||||
w: ||||||
!mf! E2 CB, A,2 DC | B,2 z2 z4 |!p!!<(! C4!<)! D3!>(! C | C2!>)! z2 z4 | z2!f! C2 C4 | B,2 B,2 D4 | %12
w: ||||||
w: ||||||
w: ||||||
w: ||||||
w: ||||||
 ^C2 z2 z4 | D8- | D3 D C2 G2 |!>(! F4!>)! E2!p! E2 | D6 G,2 | G,2 z2 z4 |"^Solo" z8 | z8 | z8 | %21
w: |||||||||
w: |||||||||
w: |||||||||
w: |||||||||
w: |||||||||
 z8 |"^Solo" z2!f! ^C4 ^FE | ^D4 ^C2 C2 | B,6 A,2 | ^G,2 z2 z4 | z8 | %27
w: ||||||
w: ||||||
w: ||||||
w: ||||||
w: ||||||
"^Tutti"!p!!<(! C4!<)! D3!>(! C!>)! | C2 z2 z4 | z2 C2!<(! CB,C!<)!D |!mf! E2 CB, A,2 DC | %31
w: ||||
w: ||||
w: ||||
w: ||||
w: ||||
 B,2 z2 z4 |!<(! C4!<)! D3!>)!!>(! C | C2 C2!<(! CB,C!<)!D | E2 C2!<(! D3!<)! C | D2 G,2 G,4 | %36
w: |||||
w: |||||
w: |||||
w: |||||
w: |||||
 G,2 z2!f! z4 | C4 B,3 C | C2 A,2!>)!!>(! A,^G,A,B, | C4!p! D4 | B,6 ^C2 | ^C4 C4 | D^CDE F2 A,2 | %43
w: |||||||
w: |||||||
w: |||||||
w: |||||||
w: |||||||
!>(! A,8!>)! | A,8 |][M:4/4]!f! E3 E E2 F2 | E4 C4 | A,2 B,2 C2 D2 | E4 E2 E2 | D4 D4 | E4 D4 | %51
w: ||||||||
w: ||||||||
w: ||||||||
w: ||||||||
w: ||||||||
 D4 z2 D2 | E4 C2 D2 | E4 z4 | z8 | z4!p! D2 D2 | D4 B,2 C2 | D2!f! B,2 B,2 B,2 | z8 | %59
w: ||||||||
w: ||||||||
w: * Lau-|da- * mus|te,||a- do-|ra- mus *|te, * * *||
w: ||||||||
w: ||||||||
 C2 C2 C2 B,2 | C4 B,2 B,2 | z8 | z8 | z8 | z8 | z4!f!!<(! ^G,2!<)! G,2 | A,4"^-" B,4 | C4 C2 C2 | %68
w: |||||||||
w: |||||||||
w: ||||||pro- pter|ma- *|gnam, pro- pter|
w: |||||||||
w: |||||||||
 D4"^-" E4 |"^-" F4 F4 | F2 E2 D2 C2 | D4 C4 | C2 B,C DCB,A, | E4 C4 | E4 z4 | z8 | z8 | z8 | z8 | %79
w: |||||||||||
w: |||||||||||
w: ma- *|* gnam,||||||||||
w: |||||||||||
w: |||||||||||
 z8 | z8 | z8 |!mf! z2 G,4 G,G, | C4 C4 | z2 B,4 B,2 | A,3 A, A,4 | z2!p! D4 D2 | %87
w: ||||||||
w: ||||||||
w: |||Do- mi- ne|Fi- li|u- ni-|ge- ni- te,||
w: ||||||||
w: ||||||||
!<(! D4!>)!!>(! ^C4!<)! | D2 z2 z4 |!f! G,4 G,2 G,2 | D4 A,4 | B,6 ^F,2 | G,4 G,4 | C4 C2 C2 | %94
w: |||||||
w: |||||||
w: |||||||
w: |||||||
w: |||||||
!>(! C8!>)! | B,8 || z8 | z8 | z8 | z8 | z4!p! C2 C2 | B,4 C4 | C4!>(! G,2 A,2!>)! | ^G,4 z4 | z8 | %105
w: |||||||||||
w: |||||||||||
w: |||||||||||
w: |||||||||||
w: |||||||||||
 z8 | z8 | z8 |!mf! z8 | C3 C C4 | C2!<(! C2 C2 C2!<)! | B,4 C4 |!f! C8 | B,4 z4 | z4!f! E,4 | %115
w: ||||||||||
w: ||||||||||
w: ||||||||||
w: ||||||||||
w: ||||||||||
 G,4 A,2 A,2 | A,4 G,2 A,2 | C6 B,2 | A,4!p! C2 C2 | C4 C4 |!>(! C8!>)! | B,8 ||!f! C3 C C2 C2 | %123
w: ||||||||
w: ||||||||
w: ||||||||
w: ||||||||
w: ||||||||
 C4 D4 | C4 B,4 | C2 z2 z4 | z4 z2 C2 | D4 D2 D2 | D3 D D4 | C4 B,4 | C8 | D2 G,2 G,2 G,2 | %132
w: |||||||||
w: |||||||||
w: |||||||||
w: |||||||||
w: |||||||||
 E3 E E4 | z2 E2 E2 EE | E4 E4 | F8 | E4 z2 ^C2 | D2 =C2 B,2 CD | E2 D2 C2 CD | E6 D2 | %140
w: ||||||||
w: ||||||||
w: ||||||||
w: ||||||||
w: ||||||||
 C4 E2"^-" D2 |"^-" C6"^-" C2 |!<(! C8-!<)! |!ff! C8 | C8- | C2 z2 z4 |][K:F][M:3/4]!f! A,4 A,2 | %147
w: |||||||
w: |||||||
w: * a- *|* men,||||||
w: |||||||
w: |||||||
 A,2 G,2 F,2 | C6 | A,4 A,2 | D4 C2 | A,2 G,2 F,2 | C6 | G,2 C2 C2 | C4 C2 | D2 D2 D2 | C2 C2 C2 | %157
w: ||||||||||
w: ||||||||||
w: ||||||||||
w: ||||||||||
w: ||||||||||
 C3 D E2 | F3 E D2 | E2!f! z2 z2 | z6 | z6 | z2!f! E2 E2 | F6 | E2 z2 z2 | z2 C2 CC | D4 D2 | %167
w: ||||||||||
w: ||||||||||
w: ||||||||||
w: ||||||||Fi- li- um|De- i,|
w: ||||||||||
 C4 C2 | A,4 A,2 | A,2 ^F,2 ^G,2 | A,2 z2 z2 |!mf! F,4 A,2 | C4 C2 | F4 D2 | ^C2!f! C2 C2 | %175
w: ||||||||
w: ||||||||
w: ||||Et ex|Pa- tre|na- *|tum * *|
w: ||||||||
w: ||||||||
 D2 D2 DE | F>E E2 z2 | D2 D2 C2 | A,2 F,2 z2 | C2 C2 C2 | D>E F2 z2 | A,4 B,2 | B,2 B,2 B,2 | %183
w: ||||||||
w: ||||||||
w: ||||||||
w: ||||||||
w: ||||||||
 F2 D2 B,2 | B,6 | A,4 z2 | z6 | z6 | DD D2 D2 | F2 _E2 D2 | _E2 D2 z2 | C4 F2 | B,2 B,2 B,2 | %193
w: ||||||||||
w: ||||||||||
w: |||||con- sub- stan- ti-|a- * lem|Pa- tri:|||
w: ||||||||||
w: ||||||||||
 B,2 C2 ^C2 | D4!f! D,2 | G,2 G,2 G,2 | D>B, G,2 G,2 | G,G, G,2 G,G, | B,2 G,2 z2 | z6 | %200
w: |||||||
w: |||||||
w: |||||||
w: |||||||
w: |||||||
 z2 z2!p! D,2 | D3 C B,A, |!>(! B,6!>)! | A,6 ||[K:G][M:4/4]!p!!<(! B,4 B,2!<)! D2 | D4!>(! E4 | %206
w: ||||||
w: ||||||
w: ||||||
w: ||||||
w: ||||||
 D2!>)! D2!<(! D2 DB,!<)! | A,4!>(! D4!>)! |!p!!<(! D3 D D2!<)! D2 | !^!E3 E!p! D2 D2 | C6 B,2 | %211
w: |||||
w: |||||
w: |||||
w: |||||
w: |||||
!>(! A,4 A,4!>)! |!pp! B,8 ||[K:F] z2!f! G,4 G,2 | D4 A,4 | C3 C G,2 A,2 | B,4 F,2 F,2 | %217
w: ||||||
w: ||||||
w: ||Cru- ci-|fi- xus|e- ti- am pro|no- bis sub|
w: ||||||
w: ||||||
 _E,3 E,!>(! E,2 C,2!>)! | D,4 D,2 z2 | z2 !^!D4 D2 | B,2 C2 C2 A,2 | =B,8 ||!f! C4 =B,2 C2 | %223
w: ||||||
w: ||||||
w: Pon- ti- o Pi-|la- to;|||||
w: ||||||
w: ||||||
 D3 C =B,2 A,2 | C4 C4 | C4 C2 C2 | C4 C2 C2 | =B,4 E2 E2 | F8 | E4 A,2 A,2 | D4 ^C2 D2 | %231
w: ||||||||
w: ||||||||
w: ||||||||
w: ||||||||
w: ||||||||
 E3 D ^C2 =B,2 | D4 D4 | D2 DD D2 DD | [G,D]8 | D4 z2 D2 | D3 D D2 C2 | B,3 B, B,2 B,2 | %238
w: |||||||
w: |||||||
w: |||||||
w: |||||||
w: |||||||
 D3 D D2 G,G, | A,4 D4 | z4 z2!p! G,2 | G,6 G,2 | G,2 z2 z4 | z2!f! C2 D2 E2 | F4 E2 C2 | C6 C2 | %246
w: ||||||||
w: ||||||||
w: ||||||||
w: ||||||||
w: ||||||||
 C4 =B,4 | C8 ||[M:3/4] z6 | z6 | z6 | z2!<(! F,F, G,A,!<)! | B,A,B,CDE | F2!f! C2 D2 | C4 G,2 | %255
w: |||||||||
w: |||||||||
w: |||||||||
w: |||||||||
w: |||||||||
 A,2 G,2 F,2 | C2 A,2 A,2 | A,6 | G,2!mf! G,2 G,2 | A,2 A,2 A,2 | =B,4 A,2 | ^G,2!p! G,2 G,2 | %262
w: |||||||
w: |||||||
w: |||* Qui cum|Pa- tre et|Fi- li-|o * *|
w: |||||||
w: |||||||
!<(! A,4!<)! A,2 |!<(! =B,6!<)! | C2!f! C2 C2 | C2 C2 =B,2 | C6 | C2 C2 C2 | C3 C E2 | E4 C2 | %270
w: ||||||||
w: ||||||||
w: ||||||||
w: ||||||||
w: ||||||||
 C2 A,2 =B,2 | C4 G,2 | A,4 A,2 | A,2 G,2 F,2 | C4 C2 | A,2 A,2 A,A, | D4 C2 | A,2 G,2 F,2 | %278
w: ||||||||
w: ||||||||
w: ||||||||
w: ||||||||
w: ||||||||
 C4 C2 | G,4 C2 | C3 C C2 | D2 D2 D2 | D6 | D2 D,D, D,D, | B,4 G,2 | F,4 _E,2 | D,4!>(! _E,2!>)! | %287
w: |||||||||
w: |||||||||
w: |||||||||
w: |||||||||
w: |||||||||
!mf! D,2 D2 D2 | G,4 G,2 | G,3 A, B,=B, | C2 C2 CC |!<(! C4!>(! =B,2!<)!!>)! | C4!f! C2 | %293
w: ||||||
w: ||||||
w: ||||||
w: ||||||
w: ||||||
 C2 C2 C2 | C4 C2 | D4 E2 | F4 C2- | C3 B, A,G, | A,2 F,2 A,A, | C6 | C2 F2!ff! F2 | F6 | F6 |] %303
w: ||||||||||
w: ||||||||||
w: ||||||||||
w: ||||||||||
w: ||||||||||
[K:C][M:4/4]!mf! z8 | G,2 A,2!>)!!>(! G,4 | z8 | C2 A,B, C4 |!f! C3 D ED CB, | A,2 DD D2 DD | %309
w: ||||||
w: ||||||
w: ||||||
w: ||||||
w: ||||||
 D3 E D3 C | B,8 ||[M:3/4] z6 | z6 | z6 | z6 |!f! _E2 E2 E2 | _E2 E2 E2 | F6 | F4 z2 | %319
w: ||||||||||
w: ||||||||||
w: ||||||||||
w: ||||||||||
w: ||||||||||
 _B,3 B, B,2 | _B,3 C D_E | F6 | _B,4 z2 |!f! D3 D D2 | _B,3 C D2 | D6 | D4!f! D2 ||[M:4/4] E4 D4 | %328
w: |||||||||
w: |||||||||
w: |||||||||
w: |||||||||
w: |||||||||
 z2 D4 E2 | F4 E2 ^C2 | D4 B,4 | C6 CD | E4 D4 | C4 z4 | z8 | z8 | z8 | z8 | z8 |][K:F][M:4/4] z8 | %340
w: ||||||||||||
w: ||||||||||||
w: ||||||||||||
w: ||||||||||||
w: ||||||||||||
 z8 | z8 | z8 |"^Solo" z8 |!mf! F,3 E, F,2 G,2 |!<(! A,4!<)! B,4 |!>(! C4!>)! C4 | %347
w: |||||||
w: |||||||
w: |||||||
w: |||||||
w: |||||||
!<(! G,3 A, B,2!<)! C2 | D4 A,2 A,2 | B,A,B,C D2 DD | G,3 A, B,2!>(! G,2!>)! | D4 z4 | z8 | z8 | %354
w: |||||||
w: |||||||
w: |||||||
w: |||||||
w: |||||||
 z4 z2"^Solo" A,2 | C6 F_E | D4 D4 | C3 C C2 F,2 | F,4 B,2 A,2 | G,2 A,2!>)!!>(! B,2 A,G, | %360
w: ||||||
w: ||||||
w: ||||||
w: ||||||
w: ||||||
 A,4"^Tutti"!f! z2 A,2 || D3 C B,2 B,2 | A,4 A,2!f! C2 | D3 D D2 D2 | C4 F2!p! CC | C8 | %366
w: ||||||
w: ||||||
w: ||||||
w: ||||||
w: ||||||
 C4 A,2 A,2 |!<(! B,8!<)! |!>(! A,8!>)! |][K:C][M:4/4] z8 | z8 | z8 | z8 | z8 | z8 | z8 | z8 | z8 | %378
w: ||||||||||||
w: ||||||||||||
w: ||||||||||||
w: ||||||||||||
w: ||||||||||||
 z2!<(! B,2 C2!<)! D2 |"^-" E6"^-" D2 |"^-" C4 D4 | D6 A,2 | B,4!mf! z4 |"^Solo" z8 | z8 | z8 | %386
w: ||||||||
w: ||||||||
w: mi- * se-|re- *|* re||||||
w: ||||||||
w: ||||||||
 z8 |"^-""^-" z8 | z8 | z2!<(! A,2 C2!<)!"^Tutti" D2 | E6 E2 | E2 ^D^C D4 | E4 z4 | z8 | %394
w: ||||||||
w: ||||||||
w: ||||||||
w: ||||||||
w: |||mi- * se-|re- re||||
!f! C4 F2 DC | B,4 C2 C2 | A,4 G,2 D2 | C4 C4 | C4 D2!>(! C2!>)! | B,2 z2 z4 || z8 |!f! z8 | %402
w: ||||||||
w: ||||||||
w: ||||||||
w: ||||||||
w: ||||||||
 C2 C2 C2 CD | E4 D4 |!mf! G,2 A,2 A,2 B,2 | B,2 C2 C4 |!f! A,2 D2 D2 ^C2 | ^C2 D2 D4 | D4 C4 | %409
w: |||||||
w: |||||||
w: ||do- na no- bis|pa- * cem,||||
w: |||||||
w: |||||||
 B,4 C2 CD | E4 D4 |"^Violine" E4 z4 | B,4 C4 | D2 D2 D3 E | E4!<(! E2 E2!<)! | F4 E4 | F8 | %417
w: ||||||||
w: ||||||||
w: ||||||||
w: ||||||||
w: ||||||||
 C6 =B,2 | C8- | C2 z2 z4 | z8 |] %421
w: ||||
w: ||||
w: ||||
w: ||||
w: ||||
V:3
 x8 | x8 | x8 | (E4 F3) E | E2 z2 z4 | z2 E2 (EDEF) | G2 G2 F4 | E2 x2 x4 | (E4 F3) E | E2 z2 z4 | %10
w: ||||||||||
 z2 G2 G4 | G2 G2 A4 | A2 x2 x4 | (A8 | G3) G G2 cB | A4 A2 A2 | (A4 G2 F2) | E2 x2 x4 | %18
w: ||||||||
 z2 ^G4 GG | !^!B4 ^G2 z2 | z8 | z8 | x2 A4 AA | (^G3 ^F) E2 F2 | (E4 ^D4) | E2 x2 x4 | x8 | %27
w: |||||||||
 (E4 F3) E | E2 z2 z4 | z2 E2 (EDEF) | G2 G2 F4 | E2 x2 x4 | (E4 F3) E | E2 x2 x4 | x2 E2 (D3 ^F) | %35
w: ||||||||
 G2 G2 (GABc) | B2 x2 x4 | (G6 F)E | E2 z2 z4 | z4 F4 | E8 | E4 E4 | (FEFG) A2 E2 | (FED^C D4) | %44
w: |||||||||
 ^C8 |][M:4/4] G3 G G2 A2 | G4 G4 | F4 F4 | E4 G2 G2 | G4 G4 | (G4 ^F4) | G4 x4 | x8 | x4 G2 G2 | %54
w: ||||||||||
 (A2 G2) F2 E2 | D4 z4 | x8 | x2 G2 G2 G2 | G4 G4 | A2 A2 G2 G2 | G6 F2 | E4 x4 | z8 | z8 | z8 | %65
w: |||||||||||
 z8 | x4 E2 E2 | E4 E4 | x4 c2 c2 | A4 A4 | A4 A4 | G4 G4 | (c2 Bc dc)BA | (E6 A2) | ^G4 x4 | z8 | %76
w: |||||||||||
 z8 | z8 | z8 | z8 | z8 | z8 | x8 | x8 | x8 | x8 | x2 F4 F2 | E8 | ^F2 x2 x4 | G4 G2 G2 | d4 A4 | %91
w: |||||||||||||||
 B6 ^F2 | G4 G4 | E4 E2 E2 | (=F4 E4) | D8 || x4 x2 G2 | (G2 A2) A2 A2 | G4 A4 | (c4 B4) | %100
w: |||||||||
 A4 F2 F2 | D4 F4 | (E4 C4) | B,4 x4 | x4 E4 | (G2 A2) A2 A2 | G4 A4 | (c6 B2) | A4 x4 | F3 F F4 | %110
w: ||||||||||
 G2 G2 G2 G2 | G4 G4 | x8 | G4 x4 | x4 E4 | G4 A2 A2 | A4 G2 A2 | (c6 B2) | A4 F2 F2 | E4 E4 | x8 | %121
w: |||||||||||
 D8 || E3 E E2 E2 | G4 G4 | (E4 G4) | E2 c2 c2 c2 | A3 A A2 A2 | A4 A2 A2 | B3 B B4 | G4 G4 | %130
w: |||||||||
 (G4 ^F4) | G2 G2 G2 G2 | G3 G G4 | x2 A2 A2 AA | ^G4 A4 | A8 | A4 x2 (A2 | F2 GA B2 A2 | %138
w: ||||||||
 G2 AB c2) A2 | (G6 F2) | E4 x4 | (c2 B2 A2) G2 | A8- | A8 | G8- | G2 x2 x4 |][K:F][M:3/4] A4 A2 | %147
w: |||||||||
 A2 G2 F2 | c6 | A4 A2 | d4 c2 | A2 G2 F2 | c6 | G2 E2 E2 | F4 F2 | F2 G2 G2 | E2 E2 E2 | %157
w: ||||||||||
 (F2 A2) G2 | A4 G2 | G2 x2 x2 | x6 | x6 | x2 ^G2 G2 | A6 | ^G2 G2 GG | A4 A2 | x2 G2 GG | G4 G2 | %168
w: |||||||||||
 F4 E2 | E4 D2 | C2 x2 x2 | x6 | x6 | x6 | x2 A2 A2 | A2 A2 _B2 | A>A A2 x2 | d2 d2 c2 | A2 F2 x2 | %179
w: |||||||||||
 A2 A2 c2 | B>B A2 x2 | F4 F2 | G2 F2 B2 | (F2 d2) B2 | (D4 =E2) | F4 x2 | DD D2 D2 | _E2 D2 x2 | %188
w: |||||||||
 x6 | x6 | x6 | G4 A2 | B2 B2 B2 | (B2 A2) G2 | ^F4 D2 | G2 G2 G2 | d>B G2 G2 | GG G2 GG | %198
w: ||||||||||
 B2 G2 G2 | (c3 B) AG | ^F2 F2 D2 | D4 DD | D6 | D6 ||[K:G][M:4/4] D4 D2 G2 | G4!>(! G4 | %206
w: ||||||||
 G2!>)! G2 G2 GG | F4 F4 | F2 F2 F2 F2 | !^!G3 G F2 F2 | E6 E2 | D6 D2 | x8 ||[K:F] x8 | x8 | x8 | %216
w: ||||||||||
 x8 | x8 | x8 | x2 !^!G4 ^F2 | G2 _E2 E2 D2 | D8 || c4 =B2 c2 | (d3 c =B2 A2 | c4) c4 | G4 G2 G2 | %226
w: ||||||||||
 A4 G2 G2 | ^G4 G2 G2 | x8 | A4 A2 A2 | d4 ^c2 d2 | (e3 d ^c2 =B2 | d4) d4 | A2 AA A2 AA | x8 | %235
w: |||||||||
 A4 x2 d2 | d3 d d2 c2 | B3 B B2 B2 | G3 G G2 GG | ^F4 F4 | (G2 =F2) _E2 D2 | _E6 C2 | =B,2 z2 z4 | %243
w: ||||||||
 z2 (E2 F2) G2 | A4 G2 G2 | (A4 G2) G2 | (G6 F2) | E8 ||[M:3/4] z6 | z6 | z6 | z2 FF FF | (F4 B2) | %253
w: ||||||||||
 A2 c2 d2 | c4 G2 | (A2 G2) F2 | c2 A2 A2 | A6 | G2 x2 x2 | x6 | x6 | x2 =B,2 B,2 | C4 C2 | D6 | %264
w: |||||||||||
 E2 G2 G2 | E2 E2 G2 | G6 | A2 A2 A2 | G3 G G2 | A4 G2 | (G4 F2) | E4 G2 | A4 A2 | A2 G2 F2 | %274
w: ||||||||||
 c4 c2 | A2 A2 AA | d4 c2 | ((A2 G2)) F2 | c4 c2 | G4 E2 | F3 F F2 | F2 F2 F2 | G6 | ^F2 DD DD | %284
w: ||||||||||
 B4 G2 | F4 _E2 | (D4 _E2) | D2 ^F2 F2 | G4 G2 | B3 A G=F | =E2 E2 EE | F6 | E4 c2 | =A2 A2 A2 | %294
w: ||||||||||
 c4 c2 | B4 B2 | A4 (c2- | c3 B AG | A2) F2 FF | (F2 ED E2) | F2 A2 A2 | B6 | A6 |] %303
w: |||||||||
[K:C][M:4/4] (G2 EF GF) (ED) | (E2 F2) E4 | z8 | (F2 CD) E4 | (E2 A4) A2 | A3 A G2 GG | G6 ^F2 | %310
w: |||||||
 D8 ||[M:3/4] G2 G2 G2 | _B2 B2 B2 | _A6 | G4 z2 | G2 G2 G2 | G2 G2 =A2 | _B6 | A4 x2 | _B3 B B2 | %320
w: ||||||||||
 d3 c _B2 | (_B2 AG A2) | _B4 x2 | G3 G G2 | _B3 A G2 | (G2 ^FE F2) | G4 G2 ||[M:4/4] G4 G4 | %328
w: ||||||||
 x2 G4 G2 | A4 A2 A2 | A4 G4 | (G2 AB c2) A2 | (G6 F2) | E4 x4 | x8 | x8 | x8 | x8 | x8 |] %339
w: |||||||||||
[K:F][M:4/4] x8 | x8 | x8 | x8 | z8 | F6 F2 | F8 | E4 E4 | (G6 B2 | A4) c2 c2 | (B4- BA)G^F | %350
w: |||||||||||
 G6 G2 | ^F4 x4 | (G3 ^F G2) A2 | (B8 | A4) A2 F2 | (G6 _A2) | G4 G4 | G3 G F2 (FE) | D4 D2 D2 | %359
w: |||||||||
 C6 C2 | C4 z2 F2 || F3 =E D2 (DE) | F4 C2 F2 | F3 F F2 (FG) | A4 A2 FF | (F4 E4) | F4 C2 C2 | D8 | %368
w: |||||||||
 C8 |][K:C][M:4/4] x8 | x8 | x8 | x8 | z8 | z8 | z8 | z8 | z8 | z8 | x2 G4 G2 | (G2 ^F2) G4 | %381
w: |||||||||||||
 (G2 ^FE F4) | G4 x4 | x8 | x8 | x8 | x8 | x8 | x2 (E2 ^F2) ^G2 | (A8 | ^G6) G2 | ^F8 | ^G4 x4 | %393
w: |||||||mi- * se-|re-|* re|no~~~\-|bis.|
 x8 | A6 F2 | E4 E2 E2 | D4 D2 G2 | G4 E4 | (F6!>(! E2)!>)! | D2 x2 x4 || z8 | z8 | G2 G2 A2 A2 | %403
w: ||||||||||
 G4 G4 | x8 | x8 | A2 A2 A2 G2 | A4 A4 | G4 G4 | (G2 F2 E2) A2 | G8 | G4 x4 | G4 G4 | G2 G2 G4 | %414
w: |||||||||||
 G4 G2 G2 | A4 G4 | (A8- | A6 _A2) | G8- | G2 x2 x4 | x8 |] %421
w: |||||||
V:4
 x8 | x8 | x8 | A,4- A,3 A, | A,2 x2 x4 | z8 | z2 C,2 D,4 | E,2 x2 x4 | A,4- A,3 A, | A,2 x2 x4 | %10
w: ||||||||||
w: ||||||||||
w: ||||||||||
w: ||||||||||
w: ||||||||||
 x2 C,2 E,D,E,F, | G,2 G,2 F,E,F,G, | A,2 x2 x4 | D6 C2 | B,3 B, C2 C,2 | D,E,F,G, A,2 A,2 | %16
w: ||||||
w: ||||||
w: ||||||
w: ||||||
w: ||||||
 F,4 G,4 | C,2 x2 x4 | x8 | x8 | x8 | x8 | x2 ^F,4 F,F, | ^G,4 A,2 ^F,2 | ^G,^F,G,A, B,2 B,,2 | %25
w: |||||||||
w: |||||||||
w: |||||||||
w: |||||||||
w: |||||||||
 E,2 x2 x4 | x8 | A,4- A,3 A, | A,2 x2 x4 | z8 | z2 C,2 D,4 | E,2 x2 x4 | A,4- A,3 A, | %33
w: ||||||||
w: ||||||||
w: ||||||||
w: ||||||||
w: ||||||||
 A,2 A,2 A,^G,A,B, | C2 C2 B,3 A, | G,2 G,2 G,4 | G,2 x2 x4 | C,4 G,3 A, | A,2 z2 z4 | z4 D,4 | %40
w: |||||||
w: |||||||
w: |||||||
w: |||||||
w: |||||||
 E,6 A,2 | A,4 z4 | z4 z2 ^C,2 | D,8 | !fermata!A,,8 |][M:4/4] C3 C C2 C2 | C4 E,4 | %47
w: |||||||
w: |||||||
w: |||||||
w: |||||||
w: |||||||
 F,2 G,2 A,2 B,2 | C4 C2 C2 | B,4 A,2 G,2 | C,4 D,4 | G,4 x2 B,2 | C4 A,2 B,2 | C4 x4 | x8 | %55
w: ||||||||
w: ||||||||
w: ||||||||
w: ||||||||
w: ||||||||
 x4 B,2 B,2 | B,4 G,2 A,2 | B,2 G,2 G,2 G,2 | x8 | F,2 F,2 E,2 D,2 | C,D,E,F, G,2 G,2 | x8 | x8 | %63
w: ||||||||
w: ||||||||
w: ||||||||
w: ||||||||
w: ||||||||
 x8 | x8 | x4 E,2 E,2 | ^F,4 ^G,4 | A,4 A,2 A,2 | B,4 C4 | D4 D4 | D2 C2 B,2 A,2 | B,4 C4 | %72
w: |||||||||
w: |||||||||
w: |||||||||
w: |||||||||
w: |||||||||
 C2 B,C DCB,A, | E,4 A,4 | E,4 x4 | x8 | x8 | x8 | x8 | x8 | x8 | x8 | x2 G,4 G,G, | C4 C4 | %84
w: ||||||||||||
w: ||||||||||||
w: ||||||||||||
w: ||||||||||||
w: ||||||||||||
 x2 B,4 B,2 | A,3 A, A,4 | x2 D,4 D,2 | A,8 | D,2 x2 x4 | G,4 G,2 G,2 | D4 A,4 | B,6 ^F,2 | %92
w: ||||||||
w: ||||||||
w: ||||||||
w: ||||||||
w: ||||||||
 G,4 G,4 | C,4 C,2 C,2 | =F,8 | G,8 || x8 | x8 | x8 | x8 | x4 F,2 F,2 | G,4 F,4 | C,6 A,,2 | %103
w: |||||||||||
w: |||||||||||
w: |||||||||||
w: |||||||||||
w: |||||||||||
 E,4 x4 | x8 | x8 | x8 | x8 | x8 | F,3 F, F,4 | E,2 E,2 E,2 E,2 | G,4 C,4 | F,8 | G,4 x4 | x4 E,4 | %115
w: ||||||||||||
w: ||||||||||||
w: ||||||||||||
w: ||||||||||||
w: ||||||||||||
 G,4 A,2 A,2 | A,4 G,2 A,2 | C6 B,2 | A,4 F,2 F,2 | C,4 A,,4 | C,8 | !fermata!G,8 || %122
w: |||||||
w: |||||||
w: |||||||
w: |||||||
w: |||||||
 C,3 C, C,2 C,2 | E,4 G,4 | A,4 G,4 | C,2 x2 x4 | x4 x2 F,2 | D,4 D,2 D,2 | G,3 G, G,4 | C,4 G,4 | %130
w: ||||||||
w: ||||||||
w: ||||||||
w: ||||||||
w: ||||||||
 A,8 | G,2 G,2 G,2 G,2 | C3 C C4 | x2 A,2 A,2 A,A, | E,4 A,4 | D8 | A,4 x2 A,2 | D,2 E,F, G,2 F,2 | %138
w: ||||||||
w: ||||||||
w: ||||||||
w: ||||||||
w: ||||||||
 E,2 F,G, A,2 F,2 | G,8 | C,4 C2 B,2 | A,2 G,2 F,2 E,2 | F,8- | F,8 | C,8- | C,2 x2 x4 |] %146
w: ||||||||
w: ||||||||
w: ||||||||
w: ||||||||
w: ||||||||
[K:F][M:3/4] A,4 A,2 | A,2 G,2 F,2 | C6 | A,4 A,2 | D4 C2 | A,2 G,2 F,2 | C6 | G,2 C,2 C,2 | %154
w: ||||||||
w: ||||||||
w: ||||||||
w: ||||||||
w: ||||||||
 F,4 F,2 | B,2 G,2 G,2 | C2 CB, A,G, | A,3 =B, C2 | F,4 G,2 | C,2 C,2 E,2 | G,4 G,2 | C4 A,2 | %162
w: ||||||||
w: ||||||||
w: ||||||||
w: ||||||||
w: |||||* Et in|u- num|Do- mi-|
 E,2 E,2 E,2 | D,6 | E,2 x2 x2 | x2 A,2 A,A, | =B,4 B,2 | C4 C,2 | D,4 A,,2 | E,4 E,2 | %170
w: ||||||||
w: ||||||||
w: ||||||||
w: ||||||||
w: num * *||||||||
 A,,2 x2 x2 | z6 | z6 | z6 | z2 A,2 A,2 | D,2 F,2 G,2 | A,>A, A,2 x2 | D2 D2 C2 | A,2 F,2 x2 | %179
w: |||||||||
w: |||||||||
w: |||||||||
w: |||||||||
w: |||||||||
 F,2 F,2 A,2 | _B,>B, F,2 x2 | F,4 B,,2 | _E,2 B,,2 B,2 | F,2 D2 B,2 | G,6 | F,4 x2 | x6 | x6 | %188
w: |||||||||
w: |||||||||
w: |||||||||
w: |||||||||
w: |||||||||
 B,B, B,2 B,2 | D2 C2 B,2 | C2 =B,2 x2 | z6 | z6 | z6 | z2 z2 D,2 | G,2 G,2 G,2 | D>B, G,2 G,2 | %197
w: |||||||||
w: |||||||||
w: |||||||||
w: |||||||||
w: |||||||||
 G,G, G,2 G,G, | B,2 G,2 x2 | x6 | x4 D,2 | G,,4 G,,D, | G,6 | !fermata!D,6 || %204
w: |||||||
w: |||||||
w: |||||||
w: |||||||
w: |||||||
[K:G][M:4/4] G,4 G,2 G,2 | B,4 C4 | G,2 G,2 G,2 G,G, | D,4 D,4 | z8 | z4 z2 B,,2 | C,4 C,4 | %211
w: |||||||
w: |||||||
w: |||||||
w: |||||||
w: |||||||
 D,6 D,2 | !fermata!G,,8 ||[K:F] x2 G,4 G,2 | D4 A,4 | C3 C G,2 A,2 | B,4 F,2 F,2 | %217
w: ||||||
w: ||||||
w: ||||||
w: ||||||
w: ||||||
 _E,3 E, E,2 C,2 | D,4 D,2 x2 | x2 !^!G,4 D,2 | _E,2 C,2 A,,2 D,2 | G,,8 || C4 =B,2 C2 | %223
w: ||||||
w: ||||||
w: ||||||
w: ||||||
w: ||||||
 D3 C =B,2 A,2 | C4 C4 | C4 C2 C2 | C4 C2 C,2 | E,4 E,2 E,2 | D,8 | A,4 A,2 A,2 | D4 ^C2 D2 | %231
w: ||||||||
w: ||||||||
w: ||||||||
w: ||||||||
w: ||||||||
 E3 D ^C2 =B,2 | D4 D4 | D,2 D,D, D,2 DD | x8 | D,4 x2 D2 | D3 D D2 C2 | B,3 B, B,2 B,2 | %238
w: |||||||
w: |||||||
w: |||||||
w: |||||||
w: |||||||
 G,3 G, G,2 _E,E, | D,4 D,4 | _E,2 D,2 C,2 =B,,2 | C,4 C,4 | G,,2 x2 x4 | z8 | z4 z2 E,2 | %245
w: |||||||
w: |||||||
w: |||||||
w: |||||||
w: |||||||
 F,4 C,2 E,2 | G,8 | !fermata!C,8 ||[M:3/4] x6 | x6 | x6 | z6 | z6 | z2 C2 D2 | C4 G,2 | %255
w: ||||||||||
w: ||||||||||
w: ||||||||||
w: ||||||||||
w: ||||||||||
 A,2 G,2 F,2 | C2 A,2 A,2 | A,6 | G,2 G,2 G,2 | A,2 A,2 A,2 | =B,4 A,2 | ^G,2 E,2 E,2 | A,,4 A,,2 | %263
w: ||||||||
w: ||||||||
w: ||||||||
w: ||||||||
w: ||||||||
 G,,6 | C,2 E,2 E,2 | A,2 A,2 G,2 | C,6 | F,2 F,2 F,2 | E,3 G, C2 | A,4 E,F, | G,6 | C,4 G,2 | %272
w: |||||||||
w: |||||||||
w: |||||||||
w: |||||||||
w: |||||||||
 A,4 A,2 | A,2 G,2 F,2 | C4 C2 | A,2 A,2 A,A, | D4 C2 | A,2 G,2 F,2 | C4 C2 | G,4 C,2 | %280
w: ||||||||
w: ||||||||
w: ||||||||
w: ||||||||
w: ||||||||
 F,3 F, F,2 | D,2 D,2 D,2 | G,6 | D,2 D,D, D,D, | B,4 G,2 | F,4 _E,2 | D,4 _E,2 | D,2 z2 z2 | z6 | %289
w: |||||||||
w: |||||||||
w: |||||||||
w: |||||||||
w: |||||||||
 z6 | z2 z2 C,C, | F,6 | C,4 C2 | F,2 F,2 F,2 | A,4 A,2 | B,4 B,2 | F,4 C2- | C3 B, A,G, | %298
w: |||||||||
w: |||||||||
w: |||||||||
w: |||||||||
w: |||||||||
 A,2 F,2 D,D, | C,6 | F,2 F,2 F,2 | !fermata!B,6 | !fermata!F,6 |][K:C][M:4/4] x8 | C,4 C,4 | x8 | %306
w: ||||||||
w: ||||||||
w: ||||||||
w: ||||||||
w: ||||||||
 F,4 C,4 | A,3 B, CB, A,G, | ^F,3 F, G,2 G,G, | B,,A,,B,,C, D,2!>(! D,2!>)! | !fermata!G,8 || %311
w: |||||
w: |||||
w: |||||
w: |||||
w: |||||
[M:3/4] x6 | x6 | x6 | x6 | C2 C2 C2 | C2 C2 C2 | _B,F,D,_B,,D,_E, | F,4 x2 | z6 | z6 | z6 | z6 | %323
w: ||||||||||||
w: ||||||||||||
w: ||||||||||||
w: ||||||||||||
w: ||||||||||||
 G,3 G, G,2 | G,3 A, _B,2 | D4 D,2 | !fermata!G,4 G,2 ||[M:4/4] C4 G,4 | x2 G,4 E,2 | D,4 A,2 A,2 | %330
w: |||||||
w: |||||||
w: |||||||
w: |||||||
w: |||||||
 D,4 G,4 | C,4 E,2 F,2 | G,8 | [C,G,]4 x4 | x8 | x8 | x8 | x8 | x8 |][K:F][M:4/4] x8 | x8 | x8 | %342
w: ||||||||||||
w: ||||||||||||
w: ||||||||||||
w: ||||||||||||
w: ||||||||||||
 x8 | x8 | z8 | z8 | z8 | z8 | z8 | z8 | z8 | z8 | x8 | x8 | x4 x2 F,2 | C,3 D, _E,2 F,2 | %356
w: ||||||||||||||
w: ||||||||||||||
w: ||||||||||||||
w: ||||||||||||||
w: ||||||||||||||
 G,4 G,2 F,2 | =E,3 E, F,2 F,2 | B,,4 B,,2 B,,2 | C,4 C,4 | F,4 x2 F,2 || B,,3 B,, B,,2 B,2 | %362
w: ||||||
w: ||||||
w: ||||||
w: ||||||
w: ||||||
 F,4 F,2 A,2 | B,3 B, B,2 B,2 | F,4 F,2 F,F, | C,8 | F,4 [F,,F,]2 [F,,F,]2 | B,,8 | %368
w: ||||||
w: ||||||
w: ||||||
w: ||||||
w: ||||||
 !fermata![F,,F,]8 |][K:C][M:4/4] x8 | x8 | x8 | x8 | x8 | x8 | x8 | x8 | x8 | x2 G,2 A,2 B,2 | %379
w: |||||||||||
w: |||||||||||
w: |||||||||||
w: |||||||||||
w: |||||||||||
 C6 B,2 | A,4 G,4 | D,8 | G,4 x4 | G,4 F,E, D,C, | B,,4 C,2 C,2 | F,4 D,2 D,2 | E,4 C,4 | B,,8 | %388
w: |||||||||
w: |||||||||
w: |||||||||
w: |||||||||
w: ||||A- * * gnus _|De- i, qui|tol- lis pec-|ca- ta|mun-|
 B,,4 z4 | z8 | z2!<(! E,E, ^G,2!<)! A,2 | B,8 | E,4 x4 | x8 | A,4 D,4 | E,4 A,2 A,2 | %396
w: ||||||||
w: ||||||||
w: ||mi- se- re- re||||||
w: ||||||||
w: di:||||||||
 F,4 G,2 G,2 | E,4 C,4 | F,8 | G,2 x2 x4 || x8 | x8 | C,2 C,2 F,2 F,2 | G,4 G,4 | z8 | z8 | %406
w: ||||||||||
w: ||||||||||
w: ||||||||||
w: ||||||||||
w: ||||||||||
 F,2 F,2 F,2 A,2 | A,2 D,2 D,4 | B,4 C4 | G,2 ^G,2 A,2 F,2 | G,8 | C,4 x4 | z8 | G,2 G,2 G,3 C, | %414
w: ||||||||
w: ||||||||
w: ||||||||
w: ||||||||
w: ||||||||
 C,4 C2 C2 | C4 C4 | F,8- | F,8 | C,8- | C,2 x2 x4 | x8 |] %421
w: |||||||
w: |||||||
w: |||||||
w: |||||||
w: |||||||
V:5
 x8 | x8 | x8 | x8 | x8 | x8 | x8 | x8 | x8 | x8 | x8 | x8 | x8 | x8 | x8 | x8 | x8 | x8 | x8 | %19
 x8 | x8 | x8 | x8 | x8 | x8 | x8 | x8 | x8 | x8 | x8 | x8 | x8 | x8 | x8 | x8 | x8 | x8 | x8 | %38
 x8 | x8 | x8 | x8 | x8 | x8 | x8 |][M:4/4] x8 | x8 | x8 | x8 | x8 | x8 | x8 | x8 | x8 | x8 | x8 | %56
 x8 | x8 | x8 | x8 | x8 | x8 | x8 | x8 | x8 | x8 | x8 | x8 | x8 | x8 | x8 | x8 | x8 | x8 | x8 | %75
 x8 | x8 | x8 | x8 | x8 | x8 | x8 | x8 | x8 | x8 | x8 | x8 | x8 | x8 | x8 | x8 | x8 | x8 | x8 | %94
 x8 | x8 || x8 | x8 | x8 | x8 | x8 | x8 | x8 | x8 | x8 | x8 | x8 | x8 | x8 | x8 | x8 | x8 | x8 | %113
 x8 | x8 | x8 | x8 | x8 | x8 | x8 | x8 | x8 || x8 | x8 | x8 | x8 | x8 | x8 | x8 | x8 | x8 | x8 | %132
 x8 | x8 | x8 | x8 | x8 | x8 | x8 | x8 | x8 | x8 | x8 | x8 | x8 | x8 |][K:F][M:3/4] x6 | x6 | x6 | %149
 x6 | x6 | x6 | x6 | x6 | x6 | x6 | x6 | x6 | x6 | x6 | x6 | x6 | x6 | x6 | x6 | x6 | x6 | x6 | %168
 x6 | x6 | x6 | x6 | x6 | x6 | x6 | x6 | x6 | x6 | x6 | x6 | x6 | x6 | x6 | x6 | x6 | x6 | x6 | %187
 x6 | x6 | x6 | x6 | x6 | x6 | x6 | x6 | x6 | x6 | x6 | x6 | x6 | x6 | x6 | x6 | x6 || %204
[K:G][M:4/4] x8 | x8 | x8 | x8 | x8 | x8 | x8 | x8 | G,8 ||[K:F] x8 | x8 | x8 | x8 | x8 | x8 | x8 | %220
 x8 | G,8 || x8 | x8 | x8 | x8 | x8 | x8 | x8 | x8 | x8 | x8 | x8 | x8 | x8 | x8 | x8 | x8 | x8 | %239
 x8 | x8 | x8 | x8 | x8 | x8 | x8 | x8 | x8 ||[M:3/4] x6 | x6 | x6 | x6 | x6 | x6 | x6 | x6 | x6 | %257
 x6 | x6 | x6 | x6 | x6 | x6 | x6 | x6 | x6 | x6 | x6 | x6 | x6 | x6 | x6 | x6 | x6 | x6 | x6 | %276
 x6 | x6 | x6 | x6 | x6 | x6 | x6 | x6 | x6 | x6 | x6 | x6 | x6 | x6 | x6 | x6 | x6 | x6 | x6 | %295
 x6 | x6 | x6 | x6 | x6 | x6 | x6 | x6 |][K:C][M:4/4] x8 | x8 | x8 | x8 | x8 | x8 | x8 | x8 || %311
[M:3/4] x6 | x6 | x6 | x6 | x6 | x6 | x6 | x6 | x6 | x6 | x6 | x6 | x6 | x6 | x6 | x6 || %327
[M:4/4] x8 | x8 | x8 | x8 | x8 | x8 | x8 | x8 | x8 | x8 | x8 | x8 |][K:F][M:4/4] x8 | x8 | x8 | %342
 x8 | x8 | x8 | x8 | x8 | x8 | x8 | x8 | x8 | x8 | x8 | x8 | x8 | x8 | x8 | x8 | x8 | x8 | x8 || %361
 x8 | x8 | x8 | x8 | x8 | x8 | x8 | x8 |][K:C][M:4/4] x8 | x8 | x8 | x8 | x8 | x8 | x8 | x8 | x8 | %378
 x8 | x8 | x8 | x8 | x8 | x8 | x8 | x8 | x8 | x8 | x8 | x8 | x8 | x8 | x8 | x8 | x8 | x8 | x8 | %397
 x8 | x8 | x8 || x8 | x8 | x8 | x8 | x8 | x8 | x8 | x8 | x8 | x8 | x8 | x8 | x8 | x8 | x8 | x8 | %416
 x8 | x8 | x8 | x8 | x8 |] %421
V:6
 x8 | x8 | x8 | x8 | x8 | x8 | x8 | x8 | x8 | x8 | x8 | x8 | x8 | x8 | x8 | x8 | x8 | x8 | x8 | %19
 x8 | x8 | x8 | x8 | x8 | x8 | x8 | x8 | x8 | x8 | x8 | x8 | x8 | x8 | x8 | x8 | x8 | x8 | x8 | %38
 x8 | x8 | x8 | x8 | x8 | x8 | x8 |][M:4/4] x8 | x8 | x8 | x8 | x8 | x8 | x8 | x8 | x8 | x8 | x8 | %56
 x8 | x8 | x8 | x8 | x8 | x8 | x8 | x8 | x8 | x8 | x8 | x8 | x8 | x8 | x8 | x8 | x8 | x8 | x8 | %75
 x8 | x8 | x8 | x8 | x8 | x8 | x8 | x8 | x8 | x8 | x8 | x8 | x8 | x8 | x8 | x8 | x8 | x8 | x8 | %94
 x8 | x8 || x8 | x8 | x8 | x8 | x8 | x8 | x8 | x8 | x8 | x8 | x8 | x8 | x8 | x8 | x8 | x8 | x8 | %113
 x8 | x8 | x8 | x8 | x8 | x8 | x8 | x8 | x8 || x8 | x8 | x8 | x8 | x8 | x8 | x8 | x8 | x8 | x8 | %132
 x8 | x8 | x8 | x8 | x8 | x8 | x8 | x8 | x8 | x8 | x8 | x8 | x8 | x8 |][K:F][M:3/4] x6 | x6 | x6 | %149
 x6 | x6 | x6 | x6 | x6 | x6 | x6 | x6 | x6 | x6 | x6 | x6 | x6 | x6 | x6 | x6 | x6 | x6 | x6 | %168
 x6 | x6 | x6 | x6 | x6 | x6 | x6 | x6 | x6 | x6 | x6 | x6 | x6 | x6 | x6 | x6 | x6 | x6 | x6 | %187
 x6 | x6 | x6 | x6 | x6 | x6 | x6 | x6 | x6 | x6 | x6 | x6 | x6 | x6 | x6 | x6 | x6 || %204
[K:G][M:4/4] x8 | x8 | x8 | x8 | x8 | x8 | x8 | x8 | x8 ||[K:F] x8 | x8 | x8 | x8 | x8 | x8 | x8 | %220
 x8 | x8 || x8 | x8 | x8 | c4 c2 c2 | c4 c2 x2 | x8 | x8 | x8 | x8 | x8 | x8 | x8 | x8 | x8 | x8 | %237
 x8 | x8 | x8 | x8 | x8 | x8 | x8 | x8 | x8 | x8 | x8 ||[M:3/4] x6 | x6 | x6 | x6 | x6 | x6 | x6 | %255
 x6 | x6 | x6 | x6 | x6 | x6 | x6 | x6 | x6 | x6 | x6 | x6 | x6 | x6 | x6 | x6 | x6 | x6 | x6 | %274
 x6 | x6 | x6 | x6 | x6 | x6 | x6 | x6 | x6 | x6 | x6 | x6 | x6 | x6 | x6 | x6 | x6 | x6 | x6 | %293
 x6 | x6 | x6 | x6 | x6 | x6 | x6 | x6 | x6 | x6 |][K:C][M:4/4] x8 | x8 | x8 | x8 | x8 | x8 | x8 | %310
 x8 ||[M:3/4] x6 | x6 | x6 | x6 | x6 | x6 | x6 | x6 | x6 | x6 | x6 | x6 | x6 | x6 | x6 | x6 || %327
[M:4/4] x8 | x8 | x8 | x8 | x8 | x8 | x8 | x8 | x8 | x8 | x8 | x8 |][K:F][M:4/4] z8 | x8 | x8 | %342
 x8 | x8 | x8 | x8 | x8 | x8 | x8 | x8 | x8 | x8 | x8 | x8 | x8 | x8 | x8 | x8 | x8 | x8 | x8 || %361
 x8 | x8 | x8 | x8 | x8 | x8 | x8 | x8 |][K:C][M:4/4] x8 | x8 | x8 | x8 | x8 | x8 | x8 | x8 | x8 | %378
 x8 | x8 | x8 | x8 | x8 | x8 | x8 | x8 | x8 | x8 | x8 | x8 | x8 | x8 | x8 | x8 | x8 | x8 | x8 | %397
 x8 | x8 | x8 || x8 | x8 | x8 | x8 | x8 | x8 | x8 | x8 | x8 | x8 | x8 | x8 | x8 | x8 | x8 | x8 | %416
 x8 | (c6 d2) | c8- | c2 z2 z4 | x8 |] %421
V:7
"^Violinen"!mf!"^Andante" a2 ef e!p!cAB | c2 c2!>(! B2!>)! A2 | ^G2 E2!<(! ^F2!<)! TG2 | A2 z2 z4 | %4
w: ||||
 z2 E2 A^GAB | c2 c2"^Corni" c4- |!mf! c2"^voll" e2 dcBA | ^G2 B2 ed!>)!!>(!cB | A2 z2 z4 | %9
w: |||||
 z2 A2 cBcd | e2!f! e2 e4 | d2 d2 f4 | e2 a3 gfe | f2 z2 z4 | z8 | z4 z2!p! c2- | c2 BA B4 | %17
w: ||||||||
 c2 c2 B2 A2 | ^G8 | B4"^Violinen" ^G2 AB | [A^c]8 | e4"^Clarinetti"!<)!!<(! ^c2 c2 | ^f2 z2 z4 | %23
w: ||||||
 z4"^Clarinetti" z2 A2 | (^G4 ^F4) | z2 e2 !^!d2 B2 | ^G2 B2 A2 G2 | A2 z2 z4 | %28
w: |||||
 z2"^Violine I" E2 A^GAB | c2"^Clarinetti et Corni" c2 c4- |!mf! c2"^voll" e2 dcBA | %31
w: |||
 ^G2 B2!>(! edc!>)!B | A2 z2 z4 | z8 | z2"^voll" =G2!<(! G^FG!<)!A | B2 B2 Bcde | d2!f! g2 f2 d2 | %37
w: ||||||
 e4 d3 c | c2"^Violinen" A2!>)!!>(! A^GAB | c4 z4 | z8 | z"^Violinen"!mp! A^ce aecA | %42
w: |||||
 FEFG"^Clarinetti" A2!p! A2 | AGFE F4 | !fermata!E8 |][M:4/4]"^Allegro" z8 | z8 | z8 | z8 | z8 | %50
w: ||||||||
 z8 |!f! z"^Violinen" g/g/ !//!g2!f! !//!g4 | !//!g4 !//!g4 | x4 e4 | f2 e2 d2 c2 | B4 D4- | %56
w: ||||||
 D4 B,2 C2 | D2 d2"^voll" d4 | g4 e4 | c2 c2 c2 d2 | e4 d4 | c4"^Viol. et Clarinetti"!p! A2 B2 | %62
w: ||||||
"^Violinen" [Ac]8 | B8 | A8 | ^G4 z4 | z4 e4 | c4 A4 | z4 g4 | f4 d4 | f8- | f4 e4 | c2 Bc dcBA | %73
w: |||||||||||
 [^GB]4 [Ac]4 | [^GB]2"^Violinen" E2 ^F2 G2 | A8 | e8 | d4 A2 B2 | c4 G4 | %79
w: ||||||
"^Clarinetti et Corni" G8- | G4 E2 F2 | G6 G2- | G8 | c8 | B8 | A8- | A2 z2 z4 | z8 | %88
w: |||||||||
"^Clarinetti et Corni" z2 D2 E2 ^F2 | GABA G^FGE | ^FGAG FEFD | ^DE^FE D^CDB, | E^FGF E^DE=D | %93
w: |||||
 C2 z2 z4 | z8 | z8 ||"^Violinen""^Andante sostenuto" e8 | g2 a2- a4 | g4 a4 | c'4 b4 | [fa]4 z4 | %101
w: ||||||||
 z8 | z8 | z4"^Violinen" E2 E2 | [CE]8 |"^Clarinetto  I" G2 A2- A4 | G4 A4 |"^Corno  I" c6 B2 | %108
w: |||||||
 [FA]2!<(! A2 c2!<)! f2 | a2 z2 z4 | z8 | z8 |!f! [Af]8 | d2"^Violinen"!f! G2 F2 ^C2 | %114
w: ||||||
 EDA,B, =CEGc | BGAB cBAG | FGAF EC F(E/D/) | EFGF ECDE | F6 z2 | z8 | z8 | z8 ||!f!"^Tempo I" G8 | %123
w: |||||||||
 c4 B4 | c4 d4 | c2 e2 e2 e2 | c3 c c2 c2 | [Adf]8 | d6 d2 | e2 z2 z4 | z8 | %131
w: ||||||||
 z2"^Violinen" G2 G2 G2 |"^voll" c8- | c2 z2 z4 |"^Clarinetto et Corno" z8 |"^voll" d8 | %136
w: |||||
 ^c2 A2 A2 z2 | z8 | z8 |"^voll" c4 B4 | c4 z4 | z4 c4- |!<(! [Ac]8!<)! |!ff! [c-f]8 | [ce]8 | %145
w: |||||||||
 c2 C2 z4 |][K:F][M:3/4]!f!"^Allegro moderato" A6 | A2 G2 F2 | G2 F2 G2 | [FA]6 | d4 c2 | %151
w: ||||||
 A2 G2 F2- |"^Corni" F6 | E2 G4 | A6 | F2 B4 | G6 | c2 f2 e2 | d2"^Corni" c2 =B2 | c2 z2 z2 | %160
w: |||||||||
"^Clarinetti"!p! G6 | [EA]6 | [E^G]2 [G=B]4 | [Ad]6 | =B2 B4 | c6 | z2 d2 dd | e4 e2 | %168
w: ||||||||
"^Violinen" d4 c2 | =B6 | A2"^Corni"!>(! A2!>)! A2 | [FA]6 | G6 | F6 | E2"^voll" e4 | f2 d2 e2 | %176
w: ||||||||
 d>^c c2 z2 | d4 =c2 | A4 z2 | f4 e2 | d2 c2 z2 | c4 d2 | _e2 d2 z2 | z2 z2 B2- | B4 c2- | %185
w: |||||||||
 c2 F2 z2 |"^Violinen" B2 z2 B2 | GA B2 z2 | D2 z2 D2 | F2 _E2 D2 | _E2 D2 z2 |"^Violinen" _e4 c2 | %192
w: |||||||
 d6- | d2 c2 B2 | A4 z2 |"^Clarinetti, Corni" G6- | G4 z2 | G6 | F2 G2!mf! G2 | %199
w: |||||||
"^Violinen" _e3 d cB | A4 z2 |!p! B3 A G^F | G6 | !fermata!^F6 || %204
w: |||||
[K:G][M:4/4]"^Andante sostenuto" z8 | z8 | z8 | z8 | z8 | z8 | z8 | z8 | z8 || %213
w: |||||||||
[K:F]"^Clarinetti, Corni"!f! G8 | d4 A4 | c4 G2 A2 | B4 F4 | _E6 C2 | D4-!<(! D2 z2 | %219
w: ||||||
 B2!<)! z2 z4 | z8 | z8 ||"^Clarinetti"!f!"^Allegro" c4 =B2 c2 | (d3 c =B2 A2 | c4) c4 | %225
w: ||||||
!f!"^voll" =e8 | f4 e4 | e4 =B4 | [A-d]8 | [A^c]4 z4 | z8 | z8 | z8 |"^Clarinetti" ^f8 | %234
w: |||||||||
"^voll" g8 | ^f4 z4 | z8 | z4 z2 B2 | B6 c2 | d4 A4 |"^Corni" G8 | _E4 z4 | %242
w: |||voll|||||
 z2"^Clarinetto I"!f! G2 =A2 =B2 |"^Clarinetto II" c8- | c4-"^Posaune" c2 c2 | c2 d2"^Corni" e4 | %246
w: ||||
 d8 | !fermata!c8 ||[M:3/4]"^Tempo I" c6 | [Ad]4 c2 | AB c2 G2 | A2!<)!!<(! A2 Bc | d6 | %253
w: |||||||
 c2"^Clarinetti" c2 d2 |"^voll" c4 G2 | [FA]2 G2 F2 | c2 A2 A2- | [FA]6 | G2 z2 z2 | %259
w: ||||||
"^Violinen" [FA]6 | =B4 A2 | ^G2 E2 E2 | E4 z2 | z6 | z2"^voll" c4- | c4 d2 | e6 | c2 c4 | %268
w: |||||||||
 g3 e c2 | c4 e2 | d6 | c4 G2 | A6 | A2 G2 F2 | G2 F2 G2 | A6 | d4 c2 | A2 G2 F2 | F6 | E4 G2 | %280
w: ||||||||||||
 A6- | A6 | B6 | A2 z2 z2 | G6 | F4 _E2 | D4 _E2 | D2!mf! A2 A2 | B4 B2 | d3 c BA | G4 z2 | z6 | %292
w: ||||||||||||
 z2 z2!f! cc | f6 | e4 e2 | d4 d2 | c4 z2 |"^voll" G4 AG | A2 F2 F2 | G6 | A2 [Ac]2 [Ac]2 | %301
w: |||||||||
 !fermata!d6 | !fermata!c6 |][K:C][M:4/4]!p!"^Andante" z8 | c2 AB c4 | %305
w: ||||
"^Violino, Clarinetto" e2 cd edcB | A4 G4 | c8- | c4 B4 | d2 z2 z4 | !fermata!z8 ||[M:3/4]!f! G6 | %312
w: |voll *||||||
 [F_B]6 | [F_A]6 | [DG]4 z2 | c6 | _e6 | d6 | [Ac]4 z2 | [_Bd]2 z2 z2 |"^Corno" z6 | z6 | z6 | %323
w: |||||||||||
!f! _B6 | d3 c _B2 | _B2 AG A2 | !fermata!=B4 z2 ||[M:4/4] z8 | z8 | z4!f! z2 e2 | f4 d4 | e4 z4 | %332
w: voll||||||voll|||
 z8 |"^Clarinetti, Corni" z2!p!!<(! E2 F2!<)! ^F2 | G2 e2 dcBA | G4- GFED |!>(! C6!>)! B,2 | %337
w: |||||
"^Clarinetti, Corni"!<(! C8-!<)! | C8 |][K:F][M:4/4]"^Violinen"!mf!"^Andante" c'2 d'2 c'afg | %340
w: |||
"^ClarinettiCorni" a2 b2!>)!!>(! a2 z c | d!<(!efg!<)! ac'ba | gf!>(!ed!>)! cBAG | F3 E F2 G2 | %344
w: ||||
!p! A6 B2 |"^Corno I" (c4 d4) | G4 G2 A2 |!<(! B3 c d2!<)! e2 | f4 e4 | d4- dcBA | B8 | %351
w: |||||||
"^Clarinetto I" [^FA]2 D2 E2 F2 | G3 ^F G2 A2 |"^Corno I" d3 c d2 =e2 | f4 c2 c2 | _e6 dc | %356
w: |||||
 =B4 z4 | z8 | z8 | z8 | z2!f! A,2 C2 F2 || F3 =E D2 DE | F4 C2 f2- | f3 e d2 de | f4 c2!p! A2 | %365
w: ||||* * voll|||||
 G8 | A4 z4 | z8 | z8 |] %369
w: ||||
[K:C][M:4/4]"^ClarinettoCorni""^Violinen"!mf!"^Larghetto" e4 c2!p!!>(! ^G2- | G3 A A2!>)! B2 | %371
w: ||
 A6!>(! T^G2!>)! | A2 z E"^Violinen" ABcd | e4 dcBA | ^G4 A2 z2 | z2 d2 z2 [GB]2 | z2 c2 z2 [EG]2 | %377
w: ||||||
 A2 G2 F2 E2 |"^Clarinetto II" D2 z2 z4 | z2"^Clarinetto I" G2"^Corni" A2 B2 | c4 B4 | A2 z2 z4 | %382
w: |||||
"^Violine" z2!p! (B,"^Corni"C) (CD) (DE) | E4 FEDC | B,4 C2 z2 | z2 F2 D2 z2 | z2 E2 C2 A2- | %387
w: |||||
 A2 G2 ^F4 | ^G2"^Clarinetto" G2 A2 B2 | [Ac]8 | B6 B2- | B2 z2 z4 | z2!f! e6- | e4- e4- | e4 z4 | %395
w: ||||||||
"^Violine" z8 |!mf! z2 [Ad]2 [GB]4 | z2 c2 G4 |!>(! A8!>)! | G8 ||"^Violine" G2 A4 B2 | B2 c2 c4 | %402
w: |||voll||||
 e6 ed | c4 B2 x2 | z8 |[I:staff +1] B,2[I:staff -1] x2[I:staff +1] C[I:staff -1]EGc | d6 e2 | %407
w: voll * *||||voll *|
 e2 f2 f4 | [df]2 z2 z4 | z8 | z8 | z2 g2 e2 c2 | d4 z4 |"^Corni" D4 D3 E | E4!<)!!<(! G4 | A4 c4 | %416
w: |||||||voll *||
 [Ac]8 | f6- [df]2 | [Gce]8- | [ce]2 z2"^Violine" E2 E2 | E4 z4 |] %421
w: |||||
V:8
 A2 ef ec F2 | E2 A2 F2 ^F2 | E2 E6- | E2 x2 x4 | z8 | z2 E2 EDEF | G2 G2 F4 | E2 ^G4 E2- | %8
 E2 x2 x4 | z8 | z2 G2 G4- | G2 G2 A4- | A2 A6- | A2 x2 x4 | x8 | x4 x2 A2- | A4 G2 F2 | %17
 E2 [EG]2 [DF]2 [C^F]2 | E8 | ^F4 E2 F^G | x8 | B4 A4- | A2 x2 x4 | x4 x2 ^F2 | (E4 ^D4) | %25
 E2 E2 =F2 D2 | B,2 D2 C2 B,2 | C2 x2 x4 | z8 | z2 E2 EDEF | G2 G2 F4 | E2 ^G4 E2- | E2 x2 x4 | %33
 x8 | x2 E2 D3 ^F | G2 G2 GABc | B2 G2- G4- | G6 FE | E2 z2 z4 | z8 | x8 | z4 [^CE]4 | %42
 D^CDE F2 E2 | FED^C D4 | ^C8 |][M:4/4] x8 | x8 | x8 | x8 | x8 | x8 | x G/G/ !//!G2 !//!G4 | %52
 !//!G4 !//!G4 | x4 G4 | A2 G2 F2 E2 | D4 B,4- | B,4 G,2 A,2 | B,2 G2 G4- | G8 | A2 A2 G4- | %60
 G6 [FG]2 | [EG]4 F4 | E8- | E8- | E4 ^D4 | E4 x4 | x4 E4- | E8 | x4 c4 | A8- | A8 | G8 | %72
 c2 Bc dcBA | E8- | E2 E6 | [CE-]8 | E8 | A4 F4 | E8 | B,4 C2 D2 | E4 C4 | D6 D2 | E8- | E8- | E8 | %85
 F8- | F2 x2 x4 | x8 | x2 D6- | DABA x4 | x8 | x8 | x8 | x8 | x8 | x8 || [Gc]8 | [ce]8- | [c-e]8 | %99
 [c-g]8 | c4 x4 | x8 | x8 | x4 B,2 B,2 | x8 | D2 [CE]2- [CE]4- | [C-E]4 [C-F]4 | [C-E]8 | %108
 C2 [CF]2 [FA]2 [Ac]2 | [cf]2 x2 x4 | x8 | x8 | x8 | G2 x2 x4 | x8 | x8 | x8 | x8 | C6 x2 | x8 | %120
 x8 | x8 || E8 | G8 | E4 G4 | [EG]2 c2 c2 c2 | A3 A A2 A2 | x8 | [GB]6 [G-B]2 | [Gc]2 x2 x4 | x8 | %131
 x2 G2 G2 G2 | [E-G]8 | [EA]2 x2 x4 | [^GB]4 [Ac]4 | [FA]8 | [EA]2 [^CE]2 [CE]2 x2 | x8 | x8 | %139
 G6 F2 | E4 x4 | c2 B2 A2 G2 | x8 | A8 | G8 | [EG]2 C2 x4 |][K:F][M:3/4] F6 | C6- | C6- | C6 | %150
 F4 E2 | F2 D4 | C6- | C2 E4 | F6- | F2 G4 | (C6 | F2) A2 G2 | A4 G2 | [EG]2 x2 x2 | D6 | C6 | %162
 =B,2 E4 | F6 | [E^G]2 G4 | A6 | x2 G2 GG | G4 G2 | F4 E2- | E4 D2 | C2 A2 A2 | C6 | C6 | D6 | %174
 ^C2 A4- | A4 _B2 | A4 x2 | F4 G2 | F4 x2 | A4 [F-c]2 | [F-B]2 [FA]2 x2 | F6 | G2 F2 x2 | x4 D2- | %184
 D4 =E2 | F2 C2 x2 | D2 x2 D2 | _E2 D2 x2 | B,2 x2 B,2 | D2 C2 B,2 | C2 =B,2 x2 | G4 A2 | B6- | %193
 B2 A2 G2 | ^F4 x2 | [B,D]6- | [B,D]4 x2 | _E6 | F2 _E2 G2 | c3 B AG | ^F4 x2 | D6 | D6- | D6 || %204
[K:G][M:4/4] x8 | x8 | x8 | x8 | x8 | x8 | x8 | x8 | x8 ||[K:F] D8- | D8 | C8 | B,8 | C6 C2 | %218
 B,4 A,2 x2 | G2 x2 x4 | x8 | x8 || c4 =B2 c2 | d3 c =B2 A2 | c4 c4 | [Gc-]8 | [Ac-]4 [Gc]4 | ^G8 | %228
 F8 | E4 x4 | x8 | x8 | x8 | [Ad-]8 | [Bd-]8 | [Ad]4 x4 | x8 | x4 x2 [D-F]2 | [DG]6 G2 | ^F8 | %240
 G2 =F2 _E2 D2 | C4 x4 | x8 | z2 E2 F2 G2 | A4 G2 G2 | A4 G4- | G6 F2 | E8 ||[M:3/4] A6 | F4 G2 | %250
 F4 E2 | F2 F4- | F4 B2 | A2 F4 | E6 | C2 D4 | C4 C2- | C4 D2 | E2 x2 x2 | x6 | F6 | E2 =B,2 B,2 | %262
 C4 x2 | x6 | x2 G4 | E4 G2- | G6 | A2 A4 | G6 | A4 G2- | G4 F2 | E4 E2 | F6 | C6 | C6- | [CF]6 | %276
 F4 E2 | F2 D4 | C6- | C4 E2 | F6- | F6 | G6 | ^F2 x2 x2 | D6- | D4 C2 | A,4 C2 | A,2 ^F2 F2 | %288
 G4 G2 | B3 A G=F | =E4 x2 | x6 | z CEG c2 | =A6 | c4 c2 | B4 B2 | A4 x2 | E4- E2- | E2 D2 F2- | %299
 F2 ED E2 | F2 F2 F2 | [FB]6 | [FA]6 |][K:C][M:4/4] G2 EF GFED | E2 F2 E4 | z8 | F2 CD E4 | %307
 E2 A6- | A4 G4 | G2 x2 x4 | x8 ||[M:3/4] _E6 | D6 | C6 | =B,4 x2 | _E6- | E6 | F6- | F4 x2 | %319
 F2 x2 x2 | F6- | F6- | F4 z2 | G6 | _B3 A G2 | G2 ^FE F2 | [DG]4 x2 ||[M:4/4] x8 | x8 | %329
 x4 x2 A2- | A4 G4 | G4 x4 | x8 | x2 C2 D2 ^D2 | E2 G2 F4 | E3 D C2 A,2 | x8 | x8 | x8 |] %339
[K:F][M:4/4] c2 d2 cAFG | f6 z2 | z c3 [ca]agf | [Gd]2 z2 E4 | C2 z2 z4 | F8- | F8 | E4- E4 | %347
 G6 B2 | A4 c4 | B4- BAG^F | G8 | x2 D6- | D2 z2 z4 | B8 | A4- A2 F2 | G6 _A2 | G4 x4 | x8 | x8 | %359
 x8 | z4 z2 C2 || D3 C B,4 | [A,C]4 A,2 F2- | F6 FG | A4- A2 F2- | F4 E4 | F4 x4 | x8 | x8 |] %369
[K:C][M:4/4] z4 z2 E2- | E3 F F2 F2 | E8 | E2 z2 z E3 | E4 F4 | E6 x2 | x2 [DA]2 x2 D2 | %376
 x2 [CG]2 x2 C2 | F2 E2 D2 C2 | B,2 x2 x4 | x2 G6- | G2 ^F2 G4 | A2 x2 x4 | x8 | C6 A,2 | x8 | %385
 x2 C2 G,2 x2 | x2 B,2 A,2 [CE]2 | ^D2 E4 D2 | E2 E2 ^F2 ^G2 | x8 | ^G6 G2 | ^F2 x2 x4 | %392
 x2 e2 d2 B2 | dcBA ^G2 AB | [Ec]4 x4 | x8 | x2 D2 D4 | x2 [CG]2 ([CE]4 | F6) E2 | D2 B,2 C2 D2 || %400
 E4 F4 | G4- G4 | G4 A4 | G4- G2 x2 | x8 | x6 [CG]2 | A8- | A4- A4 | G2 x2 x4 | x8 | x8 | %411
 x2 G2 E2 C2 | G4 x4 | z8 | z4 E4 | F4 [EG]4 | F8 | A6 _A2 | x8 | G2 x2 C2 C2 | C4 x4 |] %421
V:9
"^ORGANO" A,2 EF E"^Clarinetti""^Man."C D2 | C2 E2 D2 C2 | B,2"^Corni" ^G,2 A,2 B,2 | C2 z2 z4 | %4
w: ||||
w: ||||
 z8 |"^Clarinetti" z2 C2!<(! CB,C!<)!D |"^Ped." E2 CB, A,2 DC | B,2 E2 B,2 ED | C2 z2 z4 | z8 | %10
w: ||||||
w: ||||||
 z2 C2 C4 | B,2 B,2 D4 | ^C2 C2 D2 z2 | D2 z2 z4 | z8 | z4 z2 E2 | D6 G,2- | G,2!>(! x6!>)! | %18
w: ||||||||
w: ||||||||
"^Organo Solo""^Man."!pp! B,8- | B,4- B,2 E2- | E8- | E4- E2 ^C2- | C2 z2 z4 | z8 | z8 | %25
w: |||||||
w: |||||||
 z2"^Ped."!mf!"^voll" E,6- |!>(! [E,,E,-]8!>)! | E,2 z2 z4 | z8 | z2 C2!<(! CB,C!<)!D | %30
w: |||||
w: |||||
"^Ped." E2 CB, A,2 DC | B,2 E2 B,2 ED | C2 z2 z4 | z2"^Violinen" C2!<(! CB,C!<)!D | E2 C2 D3 C | %35
w: |||||
w: |||||
 D2 G,2 G,4- | G,2 B,2 C2 D2 | C4 B,3 C | C2 A,2 A,^G,A,B, | C4 z4 | z8 | z4 A,4- | A,6 A,2- | %43
w: ||||||||
w: ||||||||
 A,6-!>)!!>(! A,2- | A,8 |][M:4/4] z8 | z8 | z8 | z8 | z8 | z8 | z4"^Corni""^Man." z2 D2 | %52
w: |||||||||
w: |||||||||
 E4 C2 D2 | E4"^Clarinetti" C4- |"^Corni" C8 |"^Ped." G,4!p!!p! G,4- | G,8- | G,2!f! B,2 B,4 | %58
w: ||||||
w: ||||||
 C8- | C2 C2 C2 B,2 | C4 B,4 |"^Man." C4 z4 | A,8 | B,8 | B,8- | B,4!<(! ^G,2!<)! G,2 | %66
w: ||||||||
w: ||||||||
 A,4"^voll" B,4 | C4 C2 C2 | D4 E4 | [DF]8 | F2 E2 D2 C2 | D4"^Man." C4 | C2 B,C DCB,A, | %73
w: |||||||
w: |||||||
"^Ped." E,4 A,,4 | E,2 ^G,2!>(! A,2!>)!"^Man." B,2 |!p! A,8 | B,8 | A,8 | G,4 C4 | G,4 A,2 B,2 | %80
w: |||||||
w: |||||||
 C6 A,2 | B,6 B,2 |"^Violinen" C8 | z8 |"^Corno I" B,8 |"^Clarinetti" C8 | D2 z2 z4 | z8 | %88
w: ||||||||
w: ||||||||
"^Ped." z2!f! ^F,2 G,2 A,2 |"^Man." B,A,B,A, z4 | ^F,G,A,G, F,E,F,D, | ^D,E,^F,E, D,^C,D,B,, | %92
w: ||||
w: ||||
 E,^F,G,F, E,^D,E,=D, | C,2 z2 z4 | z8 | z8 ||"^Clarinetto"!pp! C8- | C2 A,2- A,4 | C4 A,4 | E8 | %100
w: ||||||||
w: ||||||||
 F4 z4 | z8 | z8 |"^Man." z4"^Corni" ^G,2 G,2 | [C,=G,]8 | B,,2 A,,2 A,,4 |!<(! C,4!<)! F,4 | %107
w: |||||||
w: |||||||
 A,4!>)!!>(! G,4 | F,2 F,4 F,2 | F,2 z2 z4 | z8 | z8 |"^Ped.""^voll" C8 | B,2"^Man." z2 z4 | %114
w: |||||||
w: |||||||
 E,D,A,,B,, =C,E,G,C | B,G,A,B, CB,A,G, | F,G,A,F, E,C, F,E,/D,/ | %117
w: |||
w: |||
"^Clarinetti et Corni" E,F,G,F, E,C,D,E, | [F,A,]6 z2 | z8 | z8 | z8 ||"^Ped.""^voll" C8- | C4 D4 | %124
w: |||||||
w: |||||||
 C4 B,4 | C2 C6 | F6 C2 |"^Posaune" [D,D-]8 | D6 G,2 | C,2 z2 z4 | z8 | z2 G,2 G,2 G,2 | C8- | %133
w: |||||||||
w: |||||||||
 C2 z2 z4 | z8 | D8 | A,2 [A,,A,]2 [A,,A,]2 z2 | z8 | z8 | E6 D2 | C4 E2 D2 | C6- C2- | [F,C]8- | %143
w: ||||||||||
w: ||||||||||
 C8- | C8- | C2 C,2 z4 |][K:F][M:3/4]"^voll" C6 | F,2 E,2 D,2 | E,2 D,2 E,2 |"^Posaunen" F,6 | %150
w: |||||||
w: |||Ped.||||
 B,4 G,2 | F,2 B,2 A,2- | A,6 | G,2 C4- | C6 | D2- D4 | C2 CB,A,G, | C3 D E2 | F3 E D2 | %159
w: |||||||||
w: |||||||||
 C,2 z2 z2 | =B,,6 | A,,6 | E,2!f! E,4 |"^Corni""^Posaunen" D,6 | E,2 z2 z2 | z2 C2 CC | D4 D2 | %167
w: ||||||||
w: ||||||||
 C4 C2 | A,4- A,2- | A,2 ^F,2 ^G,2 | A,2 A,2 A,2 |!p! F,6 | G,6 | A,6- | A,2!f! ^C2- C2 | D4- DE | %176
w: |||||||||
w: ||||Man.|||* Ped. *||
 F>E E2 z2 | A,4 C2- | C4 z2 | C4 C2 | B,2 F,2 z2 | A,4 B,2- | B,4 z2 | z2 z2 B,2- | B,6 | %185
w: |||||||||
w: |||||||||
 A,2 A,2 z2 |!p! B,2 z2 B,2 | B,2 B,2 z2 |"^Clarinetto, Corni" B,,2 z2 F,2 | F,4 F,2 | G,2 G,2 z2 | %191
w: ||||||
w: |Man. *|||||
 C4 F2 | B,6- | B,2 C2 ^C2 | D4 z2 |!f! G,6- | G,4 z2 | B,6- | B,4 z2 | z6 | D4 z2 | D3 C B,A, | %202
w: |||||||||||
w: ||||Ped.|||||||
!>(! B,6!>)! | A,6 ||[K:G][M:4/4] z8 | z8 | z8 | z8 | z8 | z8 | z8 | z8 | z8 ||[K:F] [G,_B,]8 | %214
w: ||||||||||||
w: |||||||||||Ped.|
 [=F,A,]8 | [_E,G,]8 | [D,F,]8 |!>(! G,6!>)! G,2- | G,4 ^F,2 D2- | D2 z2 z4 | z8 | z8 || %222
w: ||||||||
w: ||||||||
 C4 =B,2 C2 | D3 C =B,2 A,2 | C4 C4 | C8 | C8 | =B,4 E4 | D,8 | A,4 z4 | z8 | z8 | z8 | D8- | %234
w: ||||||||||||
w: Man. * *|||Ped.|||||||||
 [G,D-]8 | D4 z4 | z8 | z4 z2 B,2 | x4 x2 G,2 | A,4 D4 |!>(! z4 z2!>)!!p! G,2- | G,4 z4 | z8 | %243
w: |||||||||
w: |||||||||
 z2 C2 D2 E2 | F4 E2 C2 | C8- | C4 =B,4 | !fermata![C,G,C]8 ||[M:3/4]"^Violinen"!p! F,6 | D,4 E,2 | %250
w: |||||||
w: |* * Ped.||||Man.||
 z6 | F,2 F,2 G,A, | B,A,B,CDE | F2!f! A,2 B,2 | G,4 C2 | F,,2 B,,4 | A,,4 F,,2 | A,,4 =B,,2 | %258
w: ||||||||
w: |||* Ped. *|||||
 C,2 z2 z2 |!mf! C6 | D,6 | =B,2!p! ^G,2 G,2 | A,4 z2 | z6 | z2!f! C4- | C4 =B,2 | C6- | C2 C4- | %268
w: ||||||||||
w: |||* Man. *|||Ped.||||
 C4 E2- | E4 C2- | C2 A,2 =B,2 | C4 C2- | C6 | F,2 E,2 D,2 | E,2 D,2 E,2 | F,6 | B,4 G,2 | %277
w: |||||||||
w: |||||||||
 F,2 B,2 A,2- | A,6 | G,4 C2- | C6 | D6- | D6- | D2 z2 z2 | B,6- | B,4 G,2 | ^F,4!>(! G,2!>)! | %287
w: ||||||||||
w: ||||||||||
 ^F,2 D4 | G,6 | G,3 A, B,=B, | C4 z2 | z6 |"^Violinen" z2 z2 C2- | C6- | C4 C2 | D4 E2 | F4 z2 | %297
w: ||||||||||
w: ||||||||||
 C4- C2 | A,4- A,2 | C6- | C2 x4 |!ff! B,6 | C6 |][K:C][M:4/4]"^Violino II" z8 | G,2 A,2 G,4 | z8 | %306
w: |||||||||
w: |||||||voll * *||
 C2 A,B, C4 |!f! C3 D EDCB, | A,2 D6 | B,,2 z2 z4 | !fermata!z8 ||[M:3/4] _B,6 | _B,,6 | F,6 | %314
w: ||||||||
w: |||||voll|||
 G,4 z2 | C,6 | C,6 | _B,,F,D,B,,D,_E, | F,4 z2 | _B,,2 z2 z2 | z6 | z6 | z6 | D6 | G,3 A, _B,2 | %325
w: |||||||||||
w: |||||||||||
 D6 | !fermata![G,,G,]4 z2 ||[M:4/4] z8 | z8 | z4 z2 ^C2 | D4 B,4 | C4 z4 | z8 | z2 C3 B, A,2 | %334
w: |||||||||
w: |||||||||
 G,2 CB, A,2 DC | B,G,CB, A,2 G,F,- | F,E,D,C, D,4 | G,4 A,2 _A,2 |!<(!!>(! G,8!<)!!>)! |] %339
w: |||||
w: |||||
[K:F][M:4/4] z8 |!<(! c2 d2!>(! c2!<)!!>)! z2 | z CDE FA,B,C | D2 z2 G,2 CB, | A,2 z2 z4 | %344
w: |||||
w: |||||
 F,3 E, F,2 G,2 | A,4 B,4 | C4 C4 | G,3 A, B,2 C2 | D4 A,4 | B,A,B,C D4 | G,3 A, B,2 G,2 | %351
w: |||||||
w: |||||||
 D2 ^F,2 G,2 A,2 | B,2 z2 z4 | G8 | F6 A,2 | C6 F_E | D4 z4 | z8 | z8 | z8 | z4 z2 A,2 || F,8 | %362
w: |||||||||||
w: * Ped. * *|||||||||Ped.||
 F,4- F,2 C2 | D8 | C4 F2 C2- | C8- | C4 z4 | z8 | z8 |][K:C][M:4/4] z4 z2 C2- | C6 D2- | %371
w: |||||||||
w: |||||||Man.||
 DCB,A,"^Corni" B,4 | C2 z2 z ^G,A,B, | C4 D3 C | B,4 C2 z2 | z2 F,2"^Corno I" z2 G,2 | %376
w: |||||
w: |||||
 z2 E,2 z2 C,2 |!>(! z8!>)! | z2!<(! B,2 C2!<)! D2 |"^Posaune" E6 D2 | C4 D4- | D2 z2 z4 | %382
w: ||||||
w: ||Ped. * *||||
 z2 G,!p!A, A,B, B,C | G,4 A,2 F,E, | G,4 E,2 z2 | z2 F,2 G,2 z2 | z2 E,4 x2 | B,8- | B,2 z2 z4 | %389
w: |||||||
w: Ped. * * * * *|* Man. * *||||||
 z2 A,2 C2 D2 |"^Corno I" E6 E2 | B,2 z2 z4 | z2 E,6- | E,4- E,2 ^F,^G, | A,4 z4 | z8 | %396
w: |||||||
w: |* Ped.||voll||||
 z2 F,2 G,4 | z2 E,2 C,4 | C4 D2 C2 | B,2!<(! G,2!<)! A,2 B,2 || C4 D4 | E4- E4 |!f! C4 C3 D | %403
w: |||||||
w: ||||||Ped. * *|
 E4 D2!p! G,2 |"^Violine" G,2 A,4 B,2 |!<(! x2 C2 x4!<)! |!f! A,2 D4 ^C2- | C2 D2 D4- | D2 z2 z4 | %409
w: ||||||
w: |Man. * *|||||
 z8 | z8 |"^Corno Solo" z8 | B,4 z4 | G,4 G,3 C | C4 C4- |"^Posaune" C8- | C8- | C6 =B,2 | C8- | %419
w: ||||||||||
w: ||||||||||
 C2 z2!p! G,2 G,2 | G,4 z4 |] %421
w: ||
w: ||
V:10
 z4 z2 D,2 | A,,2 A,,2 D,2 ^D,2 | E,2 E,6 | A,,2 x2 x4 | x8 | z8 | z2 C,2 D,4 | E,8 | A,,2 x2 x4 | %9
 x8 | x2 C,2 E,D,E,F, | G,2 G,2 F,E,F,G, | A,2 A,2 B,2 ^C2 | x8 | x8 | x4 x2 A,2 | F,4 G,4 | %17
 C,2 C,2 D,2 ^D,2 | E,8- | E,2 ^D,2 E,4 | A,8- | A,2 ^G,2 A,2 A,2 | ^F,2 x2 x4 | x8 | x8 | %25
 x2 E,,6- | x8 | A,,2 x2 x4 | x8 | z8 | z2 C,2 D,4 | E,2 E,2- E,4 | A,,2 x2 x4 | x2 A,2 A,^G,A,B, | %34
 C2 C2 B,3 A, | G,2 G,2 G,4- | G,2 [G,,G,]2 [A,,A,]2 [B,,B,]2 | C,4 G,3 A, | A,2 z2 z4 | z8 | x8 | %41
 x4 A,,4- | A,,6 ^C,2 | D,6 D,2 | !fermata!A,,8 |][M:4/4] x8 | x8 | x8 | x8 | x8 | x8 | x4 x2 B,2 | %52
 C4 A,2 B,2 | C4 z4 | z8 | z4 G,,4- | G,,8- | G,,2 G,2 G,4 | E,4 C,4 | F,2 F,2 E,2 D,2 | %60
 C,D,E,F, G,4 | C,4 D,4 | x8 | ^G,8 | ^F,8 | E,4 E,2 E,2 | ^F,4 ^G,4 | A,4 A,2 A,2 | B,4 C4 | x8 | %70
 D2 C2 B,2 A,2 | B,4 C4 | C2 B,C DCB,A, | x8 | x2 E,4 E,2 | x8 | =G,8 | F,8 | C,8 | z8 | z8 | %81
 G,6 G,2 | C,8 | A,8 | G,8 | F,8 | D,2 x2 x4 | x8 | x2 D,6 | G,A,B,A, G,^F,G,E, | x8 | x8 | x8 | %93
 x8 | x8 | x8 || z8 | z8 | z8 | z8 | z8 | x8 | x8 | x4 E,2 E,2 | x8 | x8 | x8 | x8 | x8 | x8 | x8 | %111
 x8 | F,8 | G,2 G,2 F,2 ^C,2 | x8 | x8 | x8 | x8 | x8 | x8 | x8 | x8 || C,8 | E,4 G,4 | A,4 G,4 | %125
 C,2 z2 z4 | z4 z2 F,2 | x8 | G,6 x2 | x8 | x8 | x8 | C,6 B,,2 | A,,2 x2 x4 | x8 | D,8 | x8 | x8 | %138
 x8 | G,8 | C,4 C2 B,2 | A,2 G,2 F,2 E,2 | x8 | [F,,F,]8 | C,8- | C,2 C,2 x4 |][K:F][M:3/4] F,6 | %147
 x6 | x6 | x6 | B,,4 C,2 | D,4- D,2 | A,,4 B,,2 | C,2 C,4 | F,6 | B,2 G,4 | x6 | A,3 =B, C2 | %158
 F,4 G,2 | x6 | x6 | x6 | x6 | x6 | x6 | x2 A,2 A,A, | =B,4 B,2 | C4 C,2 | D,4 A,,2 | E,6 | %170
 A,,2 z2 z2 | x6 | E,6 | D,6 | A,,2 A,2- A,2 | D,2 F,2 G,2 | A,4 x2 | D,4 E,2 | F,4 x2 | F,4 A,2 | %180
 x6 | F,4 B,,2 | _E,2 B,,2 x2 | x4 B,,2 | G,6 | F,2 F,2 x2 | x6 | x6 | B,,2 x2 B,,2 | %189
 B,,2 C,2 D,2 | C,2 G,2 x2 | z6 | z6 | z6 | z6 | G,,6- | G,,4 x2 | _E,6 | D,2 _E,2 x2 | C,6 | %200
 D,4 x2 | G,4- G,D, | G,6 | !fermata!D,6 ||[K:G][M:4/4] x8 | x8 | x8 | x8 | x8 | x8 | x8 | x8 | %212
 x8 ||[K:F] x8 | x8 | x8 | x8 | C,6 _E,2 | D,6 z2 | G,2 x2 x4 | x8 | x8 || C4 =B,2 C2 | %223
 D3 C =B,2 A,2 | C4 C4 | C,8- | C,8 | E,8 | x8 | A,,4 x4 | x8 | x8 | x8 | D,8 | x8 | D,4 x4 | x8 | %237
 x8 | G,6 _E,2 | D,8 | _E,2 D,2 C,2 =B,,2 | C,4 x4 | x8 | z8 | z4 z2 E,2 | F,4 C,2 E,2 | G,8 | %247
 x8 ||[M:3/4] x6 | x6 | F,G, A,B, C2 | x2 z2 z2 | z6 | z2 F,2 B,,2 | C,6 | x6 | x6 | x6 | x6 | %259
 F,6 | x6 | E,2 E,2 E,2 | A,,4 x2 | x6 | x2 E,4 | A,4 G,2 | C,6 | F,2 F,4 | E,3 G, C2 | A,4 E,F, | %270
 G,6 | [C,G,]4 C,2 | F,6 | x6 | x6 | x6 | B,,4 C,2 | D,4- D,2 | A,,4 B,,2 | C,4 C,2 | F,6 | D,6 | %282
 G,6 | D,2 x2 x2 | [G,,G,]6 | B,,4 C,2 | D,4 C,2 | D,2 z2 z2 | z6 | z6 | z6 | x6 | x2 x2 C2 | F,6 | %294
 A,4 A,2 | B,4 B,2 | F,4 z2 | C,4- C,2 | ^C,2 D,2 D,2 | C,6 | F,2 F,2 F,2 | !fermata![B,,F,]6 | %302
 !fermata![F,,F,]6 |][K:C][M:4/4] x8 | C,8 | x8 | F,4 C,4 | A,3 B, CB,A,G, | ^F,4 G,4 | x8 | x8 || %311
[M:3/4] _E,6 | x6 | x6 | x6 | x6 | x6 | x6 | x6 | x6 | x6 | x6 | x6 | G,6 | x6 | D,6 | x6 || %327
[M:4/4] x8 | x8 | x4 x2 A,2 | D,4 G,4 | C,4 x4 | x8 | x2 C,6- | C,4 D,4 | E,4 F,2 F,,2 | G,,8 | %337
 C,8- | C,8 |][K:F][M:4/4] x8 | F6 z2 | z4 z F,G,A, | B,2 z2 C,4 | F,2 z2 z4 | z8 | z8 | z8 | z8 | %348
 z8 | z8 | z8 | z2 D,6 | [G,,G,]2 x2 x4 | z8 | z4 z2 F,2 | C,3 D, _E,2 F,2 | G,4 z4 | x8 | x8 | %359
 x8 | x4 x2 F,2 || B,,8 | x6 A,2 | B,8 | F,4 F,2 F,2 | C,8 | F,4 x4 | x8 | x8 |] %369
[K:C][M:4/4] x4 x2 C2 | F,6 D,2 | E,6 E,2 | A,2 z2 z4 | A,4 D,4 | E,4 A,2 x2 | x8 | x8 | F,8 | %378
 G,2 G,2 A,2 B,2 | C6 B,2 | A,4 G,4 | D,2 x2 x4 | x2 G,,6 | C,4 F,,4 | G,,4 C,2 x2 | %385
 x2 A,,2 B,,2 x2 | x2 ^G,,2 A,,2 A,,2 | B,,8 | E,2 x2 x4 | z8 | z2 E,2 ^G,2 A,2 | B,2 x2 x4 | %392
 x2 E,2 D,2 B,,2 | D,C,B,,A,, ^G,,E, E,2 | A,,4 x4 | x8 | x8 | x8 | F,8 | G,2 z2 z4 || z8 | z8 | %402
 C,4 F,4 | G,4- G,2 z2 | C,4 D,4 | E,4 E,2 E,2 | F,6 A,2- | A,2 D,2 D,4 | B,2 x2 x4 | x8 | x8 | %411
 x8 | z8 | z8 | z4 C,4- | C,8 | [F,,F,]8- | [F,,F,]8 | C,8- | C,2 x2 C,2 C,2 | C,4 x4 |] %421
V:11
 x8 | x8 | x6 x ^F/^G/ | x8 | x8 | x8 | x8 | x8 | x8 | x8 | x8 | x8 | x8 | x8 | x8 | x8 | x8 | x8 | %18
 x8 | x8 | x8 | x8 | x8 | x8 | x8 | x8 | x8 | x8 | x8 | x8 | x8 | x8 | x8 | x8 | x8 | x8 | x8 | %37
 x8 | x8 | x8 | x8 | x8 | x8 | x8 | x8 |][M:4/4] x8 | x8 | x8 | x8 | x8 | x8 | x8 | x8 | %53
 gc/c/ e/e/g/g/ c'2 !//!c'2 | x8 | x8 | x8 | x8 | x8 | x8 | x8 | x8 | x8 | x8 | x8 | x8 | x8 | x8 | %68
 x8 | x8 | x8 | x8 | x8 | x8 | x8 | x8 | x8 | x8 | x8 | x8 | x8 | x8 | x8 | x8 | x8 | x8 | x8 | %87
 x8 | x8 | x8 | x8 | x8 | x8 | x8 | x8 | x8 || x8 | x8 | x8 | x8 | x8 | x8 | x8 | x8 | x8 | x8 | %106
 x8 | x8 | x8 | x8 | x8 | x8 | x8 | x8 | x8 | x8 | x8 | x8 | FAcf a2 x2 | z8 | x8 | x8 || x8 | x8 | %124
 x8 | x8 | x8 | x8 | x8 | x8 | x8 | x8 | x8 | x8 | E8 | x8 | x8 | x8 | x8 | x8 | x8 | x8 | x8 | %143
 x8 | x8 | x8 |][K:F][M:3/4] x6 | x6 | x6 | x6 | x6 | x6 | x6 | x6 | x6 | x6 | E6 | x6 | x6 | x6 | %160
 x6 | x6 | x6 | x6 | x6 | x6 | x6 | x6 | x6 | x6 | x6 | x6 | x6 | x6 | x6 | x6 | x6 | x6 | x6 | %179
 x6 | x6 | x6 | x6 | x6 | x6 | x6 | x6 | x6 | x6 | x6 | x6 | x6 | x6 | x6 | x6 | x6 | x6 | x6 | %198
 x6 | x6 | x6 | x6 | x6 | x6 ||[K:G][M:4/4] x8 | x8 | x8 | x8 | x8 | x8 | x8 | x8 | x8 ||[K:F] x8 | %214
 x8 | x8 | x8 | x8 | x8 | x8 | x8 | x8 || x8 | x8 | x8 | x8 | x8 | x8 | x8 | x8 | x8 | x8 | x8 | %233
 x8 | x8 | x8 | x8 | x8 | x8 | x8 | x8 | x8 | x8 | x8 | x8 | x8 | x8 | x8 ||[M:3/4] x6 | x6 | x6 | %251
 x6 | x6 | x6 | x6 | x2 D4 | F4 F2- | x6 | x6 | x6 | x6 | x6 | x6 | x6 | x6 | x6 | x6 | x6 | x6 | %269
 x6 | x6 | x6 | x6 | C6 | C6 | x6 | x6 | x6 | x6 | x6 | x6 | x6 | x6 | x6 | x6 | x6 | x6 | x6 | %288
 x6 | x6 | x6 | x6 | x6 | x6 | x6 | x6 | x6 | x6 | x6 | x6 | x6 | x6 | x6 |][K:C][M:4/4] x8 | x8 | %305
 x8 | x8 | x8 | x8 | x8 | x8 ||[M:3/4] x6 | x6 | x6 | x6 | G6- | G4 =A2 | _B6 | c3 FAc | x6 | x6 | %321
 x6 | x6 | x6 | D6 | x6 | x6 ||[M:4/4] x8 | x8 | x8 | x8 | x8 | x8 | x8 | x8 | x8 | x8 | x8 | x8 |] %339
[K:F][M:4/4] c'2 d'2 c'a fg | x8 | x8 | x8 | x8 | x8 | x8 | x8 | x8 | x8 | x8 | x8 | x8 | x8 | x8 | %354
 x8 | x8 | x8 | x8 | x8 | x8 | x8 || x8 | x8 | x8 | x8 | x8 | x8 | x8 | x8 |][K:C][M:4/4] x8 | x8 | %371
 x6 x ^F/^G/ | x8 | x8 | x8 | x8 | x8 | x8 | x8 | x8 | x8 | x8 | x8 | x8 | x8 | x8 | x8 | x8 | x8 | %389
 x8 | x8 | x8 | z2 E6- | E4- E2 z2 | x8 | x8 | x8 | x8 | x8 | x8 || x8 | x8 | x8 | x8 | x8 | x8 | %406
 x8 | x8 | x8 | x8 | x8 | x8 | x8 | x8 | x8 | x8 | x8 | c6 x2 | x8 | x8 | x8 |] %421
V:12
 x8 | x8 | x8 | x8 | x8 | x8 | x8 | x8 | x8 | x8 | x8 | x8 | x8 | x8 | x8 | x8 | x8 | x8 | x8 | %19
 x8 | x8 | x8 | x8 | x8 | x8 | x8 | x8 | x8 | x8 | x8 | x8 | x8 | x8 | x8 | x8 | x8 | x8 | x8 | %38
 x8 | x8 | x8 | x8 | x8 | x8 | x8 |][M:4/4] x8 | x8 | x8 | x8 | x8 | x8 | x8 | x8 | %53
 Gc/c/ e/e/g/g/ e2 x2 | x8 | x8 | x8 | x8 | x8 | x8 | x8 | x8 | x8 | x8 | x8 | x8 | x8 | x8 | x8 | %69
 x8 | x8 | x8 | x8 | x8 | x8 | x8 | x8 | x8 | x8 | x8 | x8 | x8 | x8 | x8 | x8 | x8 | x8 | x8 | %88
 x8 | x8 | x8 | x8 | x8 | x8 | x8 | x8 || x8 | x8 | x8 | x8 | x8 | x8 | x8 | x8 | x8 | x8 | x8 | %107
 x8 | x8 | x8 | x8 | x8 | x8 | x8 | x8 | x8 | x8 | x8 | x8 | x8 | x8 | x8 || x8 | x8 | x8 | x8 | %126
 x8 | x8 | x8 | x8 | x8 | x8 | x8 | x8 | x8 | x8 | x8 | x8 | x8 | x8 | x8 | x8 | x8 | x8 | x8 | %145
 x8 |][K:F][M:3/4] x6 | C6- | C6 | x6 | x6 | x6 | x6 | x6 | x6 | x6 | x6 | x6 | x6 | x6 | x6 | x6 | %162
 x6 | x6 | x6 | x6 | x6 | x6 | x6 | x6 | x6 | x6 | x6 | x6 | x6 | x6 | x6 | x6 | x6 | x6 | x6 | %181
 x6 | x6 | x6 | x6 | x6 | x6 | x6 | x6 | x6 | x6 | x6 | x6 | x6 | x6 | x6 | x6 | x6 | x6 | x6 | %200
 x6 | x6 | x6 | x6 ||[K:G][M:4/4] x8 | x8 | x8 | x8 | x8 | x8 | x8 | x8 | x8 ||[K:F] x8 | x8 | x8 | %216
 x8 | x8 | x8 | x8 | x8 | x8 || x8 | x8 | x8 | x8 | x8 | x8 | x8 | x8 | x8 | x8 | x8 | x8 | x8 | %235
 x8 | x8 | x8 | x8 | x8 | x8 | x8 | x8 | x8 | x8 | x8 | x8 | x8 ||[M:3/4] x6 | x6 | x6 | x6 | x6 | %253
 x6 | x6 | x6 | x6 | x6 | x6 | x6 | x6 | x6 | x6 | x6 | x6 | x6 | x6 | x6 | x6 | x6 | x6 | x6 | %272
 x6 | x6 | x6 | x6 | x6 | x6 | x6 | x6 | x6 | x6 | x6 | x6 | x6 | x6 | x6 | x6 | x6 | x6 | x6 | %291
 x6 | x6 | x6 | x6 | x6 | x6 | x6 | x6 | x6 | x6 | x6 | x6 |][K:C][M:4/4] x8 | x8 | x8 | x8 | x8 | %308
 x8 | D2 x2 x4 | x8 ||[M:3/4] x6 | x6 | x6 | x6 | x6 | x6 | x6 | x6 | x6 | x6 | x6 | x6 | x6 | x6 | %325
 x6 | x6 ||[M:4/4] x8 | x8 | x8 | x8 | x8 | x8 | x8 | x8 | x8 | x8 | x8 | x8 |][K:F][M:4/4] x8 | %340
 x8 | x8 | x8 | x8 | x8 | x8 | x8 | x8 | x8 | x8 | x8 | x8 | x8 | x8 | x8 | x8 | x8 | x8 | x8 | %359
 x8 | x8 || x8 | x8 | x8 | x8 | x8 | x8 | x8 | x8 |][K:C][M:4/4] x8 | x8 | x8 | x8 | x8 | x8 | x8 | %376
 x8 | x8 | x8 | x8 | x8 | x8 | x8 | x8 | x8 | x8 | x8 | x8 | x8 | x8 | x8 | x8 | x8 | x8 | x8 | %395
 x8 | x8 | x8 | x8 | x8 || x8 | x8 | x8 | x8 | x8 | x8 | x8 | x8 | x8 | x8 | x8 | x8 | x8 | x8 | %414
 x8 | x8 | x8 | x8 | x8 | x8 | x8 |] %421
V:13
 x8 | x8 | x8 | x8 | x8 | x8 | x8 | x8 | x8 | x8 | x8 | x8 | x8 | x8 | x8 | x8 | x8 | x8 | x8 | %19
 x8 | x8 | x8 | x8 | x8 | x8 | x8 | x8 | x8 | x8 | x8 | x8 | x8 | x8 | x8 | x8 | x8 | x8 | x8 | %38
 x8 | x8 | x8 | x8 | x8 | x8 | x8 |][M:4/4] x8 | x8 | x8 | x8 | x8 | x8 | x8 | x8 | x8 | x8 | x8 | %56
 x8 | x8 | x8 | x8 | x8 | x8 | x8 | x8 | x8 | x8 | x8 | x8 | x8 | x8 | x8 | x8 | x8 | x8 | x8 | %75
 x8 | x8 | x8 | x8 | x8 | x8 | x8 | x8 | x8 | x8 | x8 | x8 | x8 | x8 | x8 | x8 | x8 | x8 | x8 | %94
 x8 | x8 || x8 | x8 | x8 | x8 | x8 | x8 | x8 | x8 | x8 | x8 | x8 | x8 | x8 | x8 | x8 | x8 | x8 | %113
 x8 | x8 | x8 | x8 | x8 | x8 | x8 | x8 | x8 || x8 | x8 | x8 | x8 | x8 | x8 | x8 | x8 | x8 | x8 | %132
 x8 | x8 | x8 | x8 | x8 | x8 | x8 | x8 | x8 | x8 | x8 | x8 | x8 | x8 |][K:F][M:3/4] x6 | x6 | x6 | %149
 x6 | x6 | x6 | x6 | x6 | x6 | x6 | x6 | x6 | x6 | x6 | x6 | x6 | x6 | x6 | x6 | x6 | x6 | x6 | %168
 x6 | x6 | x6 | x6 | x6 | x6 | x6 | x6 | x6 | x6 | x6 | x6 | x6 | x6 | x6 | x6 | x6 | x6 | x6 | %187
 x6 | x6 | x6 | x6 | x6 | x6 | x6 | x6 | x6 | x6 | x6 | x6 | x6 | x6 | x6 | x6 | x6 || %204
[K:G][M:4/4] x8 | x8 | x8 | x8 | x8 | x8 | x8 | x8 | x8 ||[K:F] x8 | x8 | x8 | x8 | x8 | x8 | x8 | %220
 x8 | x8 || x8 | x8 | x8 | x8 | x8 | x8 | x8 | x8 | x8 | x8 | x8 | x8 | x8 | x8 | x8 | x8 | x8 | %239
 x8 | x8 | x8 | x8 | x8 | x8 | x8 | x8 | x8 ||[M:3/4] x6 | x6 | x6 | x6 | x6 | x6 | x6 | x6 | x6 | %257
 x6 | x6 | x6 | x6 | x6 | x6 | x6 | x6 | x6 | x6 | x6 | x6 | x6 | x6 | x6 | x6 | x6 | x6 | x6 | %276
 x6 | x6 | x6 | x6 | x6 | x6 | x6 | x6 | x6 | x6 | x6 | x6 | x6 | x6 | x6 | x6 | x6 | x6 | x6 | %295
 x6 | x6 | x6 | x6 | x6 | x6 | x6 | x6 |][K:C][M:4/4] x8 | x8 | x8 | x8 | x8 | x8 | x8 | x8 || %311
[M:3/4] x6 | x6 | x6 | x6 | x6 | x6 | x6 | x6 | x6 | x6 | x6 | z6 | x6 | x6 | x6 | x6 || %327
[M:4/4] x8 | x8 | x8 | x8 | x8 | x8 | x8 | x8 | x8 | G,8 | E,4 F,4 | E,8 |][K:F][M:4/4] x8 | x8 | %341
 x8 | x8 | x8 | x8 | x8 | x8 | x8 | x8 | x8 | x8 | x8 | x8 | x8 | x8 | x8 | x8 | x8 | x8 | x8 | %360
 x8 || x8 | x8 | x8 | x8 | x8 | x8 | x8 | x8 |][K:C][M:4/4] x8 | x8 | x8 | x8 | x8 | x8 | x8 | x8 | %377
 x8 | x8 | x8 | x8 | x8 | z2 G,6- | x8 | D,4 x4 | x8 | x8 | x8 | x8 | x8 | x8 | x8 | x8 | x8 | x8 | %395
 x8 | x8 | x8 | x8 | x8 || x8 | x8 | x8 | x8 | E,4 F,4 | G,4 G,2 x2 | x8 | x8 | x8 | x8 | x8 | x8 | %412
 x8 | x8 | x8 | x8 | x8 | x8 | x8 | x8 | x8 |] %421

